(G-CODE GENERATED BY FLATCAM v8.994 - www.flatcam.org - Version Date: 2020/11/7)

(Name: Q1078-PCB_drill.txt_cnc)
(Type: G-code from Geometry)
(Units: MM)

(Created on Monday, 20 November 2023 at 09:34)

(This preprocessor is used with a motion controller loaded with GRBL firmware.)
(It is configured to be compatible with almost any version of GRBL firmware.)


(TOOLS DIAMETER: )
(Tool: 1 -> Dia: 3.1999936)
(Tool: 2 -> Dia: 1.0668)
(Tool: 3 -> Dia: 0.889)
(Tool: 4 -> Dia: 0.9652)
(Tool: 5 -> Dia: 0.8000237999999998)

(FEEDRATE Z: )
(Tool: 1 -> Feedrate: 300)
(Tool: 2 -> Feedrate: 10.0)
(Tool: 3 -> Feedrate: 10.0)
(Tool: 4 -> Feedrate: 10.0)
(Tool: 5 -> Feedrate: 10.0)

(FEEDRATE RAPIDS: )
(Tool: 1 -> Feedrate Rapids: 1500)
(Tool: 2 -> Feedrate Rapids: 1500)
(Tool: 3 -> Feedrate Rapids: 1500)
(Tool: 4 -> Feedrate Rapids: 1500)
(Tool: 5 -> Feedrate Rapids: 1500)

(Z_CUT: )
(Tool: 1 -> Z_Cut: -1.7)
(Tool: 2 -> Z_Cut: -2.5)
(Tool: 3 -> Z_Cut: -2.5)
(Tool: 4 -> Z_Cut: -2.5)
(Tool: 5 -> Z_Cut: -2.5)

(Tools Offset: )
(Tool: 2 -> Offset Z: 0.0)
(Tool: 3 -> Offset Z: 0.0)
(Tool: 4 -> Offset Z: 0.0)
(Tool: 5 -> Offset Z: 0.0)

(Z_MOVE: )
(Tool: 1 -> Z_Move: 2)
(Tool: 2 -> Z_Move: 2.0)
(Tool: 3 -> Z_Move: 2.0)
(Tool: 4 -> Z_Move: 2.0)
(Tool: 5 -> Z_Move: 2.0)

(Z Toolchange: 2.0 mm)
(X,Y Toolchange: 0.0000, 0.0000 mm)
(Z Start: None mm)
(Z End: 2.0 mm)
(X,Y End: 0.0000, 0.0000 mm)
(Steps per circle: 64)
(Steps per circle: 64)
(Preprocessor Excellon: GRBL_11_no_M6)

(X range:    2.9466 ...   88.6966  mm)
(Y range:    1.7856 ...   81.4146  mm)

(Spindle Speed: 0 RPM)
G21
G90
G17
G94


G01 F10.00

M5             
G00 Z2.0000
G00 X0.0000 Y0.0000                
T2
(MSG, Change to Tool Dia = 1.0668 ||| Total drills for tool T2 = 104)
M0
G00 Z2.0000
        
G01 F10.00
M03
G00 X76.9874 Y31.4401
G01 Z-2.5000
G01 Z0
G00 Z2.0000
G00 X73.1266 Y31.4401
G01 Z-2.5000
G01 Z0
G00 Z2.0000
G00 X73.1266 Y27.6301
G01 Z-2.5000
G01 Z0
G00 Z2.0000
G00 X74.0816 Y20.0101
G01 Z-2.5000
G01 Z0
G00 Z2.0000
G00 X79.4766 Y11.1201
G01 Z-2.5000
G01 Z0
G00 Z2.0000
G00 X76.9366 Y11.1201
G01 Z-2.5000
G01 Z0
G00 Z2.0000
G00 X74.3966 Y11.1201
G01 Z-2.5000
G01 Z0
G00 Z2.0000
G00 X71.8566 Y11.1201
G01 Z-2.5000
G01 Z0
G00 Z2.0000
G00 X71.5416 Y20.0101
G01 Z-2.5000
G01 Z0
G00 Z2.0000
G00 X69.0016 Y20.0101
G01 Z-2.5000
G01 Z0
G00 Z2.0000
G00 X66.4616 Y20.0101
G01 Z-2.5000
G01 Z0
G00 Z2.0000
G00 X63.9216 Y20.0101
G01 Z-2.5000
G01 Z0
G00 Z2.0000
G00 X61.3816 Y20.0101
G01 Z-2.5000
G01 Z0
G00 Z2.0000
G00 X58.8416 Y20.0101
G01 Z-2.5000
G01 Z0
G00 Z2.0000
G00 X56.3016 Y20.0101
G01 Z-2.5000
G01 Z0
G00 Z2.0000
G00 X51.2216 Y20.0101
G01 Z-2.5000
G01 Z0
G00 Z2.0000
G00 X48.6816 Y20.0101
G01 Z-2.5000
G01 Z0
G00 Z2.0000
G00 X46.1416 Y20.0101
G01 Z-2.5000
G01 Z0
G00 Z2.0000
G00 X43.6016 Y20.0101
G01 Z-2.5000
G01 Z0
G00 Z2.0000
G00 X41.0616 Y20.0101
G01 Z-2.5000
G01 Z0
G00 Z2.0000
G00 X38.5216 Y20.0101
G01 Z-2.5000
G01 Z0
G00 Z2.0000
G00 X31.2191 Y8.5801
G01 Z-2.5000
G01 Z0
G00 Z2.0000
G00 X28.7172 Y8.5801
G01 Z-2.5000
G01 Z0
G00 Z2.0000
G00 X24.8691 Y2.2301
G01 Z-2.5000
G01 Z0
G00 Z2.0000
G00 X16.1290 Y6.0401
G01 Z-2.5000
G01 Z0
G00 Z2.0000
G00 X9.6291 Y6.0401
G01 Z-2.5000
G01 Z0
G00 Z2.0000
G00 X9.6291 Y10.5410
G01 Z-2.5000
G01 Z0
G00 Z2.0000
G00 X16.1290 Y10.5410
G01 Z-2.5000
G01 Z0
G00 Z2.0000
G00 X24.8691 Y12.3901
G01 Z-2.5000
G01 Z0
G00 Z2.0000
G00 X24.8666 Y25.0901
G01 Z-2.5000
G01 Z0
G00 Z2.0000
G00 X31.2191 Y31.4401
G01 Z-2.5000
G01 Z0
G00 Z2.0000
G00 X28.7172 Y31.4401
G01 Z-2.5000
G01 Z0
G00 Z2.0000
G00 X24.8666 Y35.2501
G01 Z-2.5000
G01 Z0
G00 Z2.0000
G00 X16.1290 Y33.4010
G01 Z-2.5000
G01 Z0
G00 Z2.0000
G00 X16.1290 Y28.9001
G01 Z-2.5000
G01 Z0
G00 Z2.0000
G00 X9.6291 Y28.9001
G01 Z-2.5000
G01 Z0
G00 Z2.0000
G00 X9.6291 Y33.4010
G01 Z-2.5000
G01 Z0
G00 Z2.0000
G00 X9.6291 Y51.7601
G01 Z-2.5000
G01 Z0
G00 Z2.0000
G00 X9.6291 Y56.2610
G01 Z-2.5000
G01 Z0
G00 Z2.0000
G00 X16.1290 Y56.2610
G01 Z-2.5000
G01 Z0
G00 Z2.0000
G00 X16.1290 Y51.7601
G01 Z-2.5000
G01 Z0
G00 Z2.0000
G00 X24.8691 Y47.9501
G01 Z-2.5000
G01 Z0
G00 Z2.0000
G00 X31.2191 Y54.3001
G01 Z-2.5000
G01 Z0
G00 Z2.0000
G00 X28.7172 Y54.3001
G01 Z-2.5000
G01 Z0
G00 Z2.0000
G00 X24.8691 Y58.1101
G01 Z-2.5000
G01 Z0
G00 Z2.0000
G00 X24.8666 Y70.8101
G01 Z-2.5000
G01 Z0
G00 Z2.0000
G00 X16.1290 Y74.6201
G01 Z-2.5000
G01 Z0
G00 Z2.0000
G00 X9.6291 Y74.6201
G01 Z-2.5000
G01 Z0
G00 Z2.0000
G00 X9.6291 Y79.1185
G01 Z-2.5000
G01 Z0
G00 Z2.0000
G00 X16.1290 Y79.1185
G01 Z-2.5000
G01 Z0
G00 Z2.0000
G00 X24.8666 Y80.9701
G01 Z-2.5000
G01 Z0
G00 Z2.0000
G00 X28.7172 Y77.1601
G01 Z-2.5000
G01 Z0
G00 Z2.0000
G00 X31.2191 Y77.1601
G01 Z-2.5000
G01 Z0
G00 Z2.0000
G00 X38.5216 Y68.2701
G01 Z-2.5000
G01 Z0
G00 Z2.0000
G00 X41.0616 Y68.2701
G01 Z-2.5000
G01 Z0
G00 Z2.0000
G00 X43.6016 Y68.2701
G01 Z-2.5000
G01 Z0
G00 Z2.0000
G00 X46.1416 Y68.2701
G01 Z-2.5000
G01 Z0
G00 Z2.0000
G00 X48.6816 Y68.2701
G01 Z-2.5000
G01 Z0
G00 Z2.0000
G00 X51.2216 Y68.2701
G01 Z-2.5000
G01 Z0
G00 Z2.0000
G00 X53.7616 Y68.2701
G01 Z-2.5000
G01 Z0
G00 Z2.0000
G00 X56.3016 Y68.2701
G01 Z-2.5000
G01 Z0
G00 Z2.0000
G00 X60.4266 Y68.2701
G01 Z-2.5000
G01 Z0
G00 Z2.0000
G00 X62.9666 Y68.2701
G01 Z-2.5000
G01 Z0
G00 Z2.0000
G00 X65.5066 Y68.2701
G01 Z-2.5000
G01 Z0
G00 Z2.0000
G00 X68.0466 Y68.2701
G01 Z-2.5000
G01 Z0
G00 Z2.0000
G00 X70.5866 Y68.2701
G01 Z-2.5000
G01 Z0
G00 Z2.0000
G00 X73.1266 Y68.2701
G01 Z-2.5000
G01 Z0
G00 Z2.0000
G00 X75.6666 Y68.2701
G01 Z-2.5000
G01 Z0
G00 Z2.0000
G00 X78.2066 Y68.2701
G01 Z-2.5000
G01 Z0
G00 Z2.0000
G00 X80.7466 Y68.2701
G01 Z-2.5000
G01 Z0
G00 Z2.0000
G00 X83.2866 Y68.2701
G01 Z-2.5000
G01 Z0
G00 Z2.0000
G00 X61.6966 Y45.4101
G01 Z-2.5000
G01 Z0
G00 Z2.0000
G00 X51.5366 Y45.4101
G01 Z-2.5000
G01 Z0
G00 Z2.0000
G00 X51.5366 Y42.8701
G01 Z-2.5000
G01 Z0
G00 Z2.0000
G00 X51.5366 Y40.3301
G01 Z-2.5000
G01 Z0
G00 Z2.0000
G00 X51.5366 Y37.7901
G01 Z-2.5000
G01 Z0
G00 Z2.0000
G00 X51.5366 Y35.2501
G01 Z-2.5000
G01 Z0
G00 Z2.0000
G00 X51.5366 Y32.7101
G01 Z-2.5000
G01 Z0
G00 Z2.0000
G00 X51.5366 Y30.1701
G01 Z-2.5000
G01 Z0
G00 Z2.0000
G00 X51.5366 Y27.6301
G01 Z-2.5000
G01 Z0
G00 Z2.0000
G00 X61.6966 Y27.6301
G01 Z-2.5000
G01 Z0
G00 Z2.0000
G00 X65.5574 Y27.6301
G01 Z-2.5000
G01 Z0
G00 Z2.0000
G00 X65.5574 Y31.4401
G01 Z-2.5000
G01 Z0
G00 Z2.0000
G00 X61.6966 Y30.1701
G01 Z-2.5000
G01 Z0
G00 Z2.0000
G00 X61.6966 Y32.7101
G01 Z-2.5000
G01 Z0
G00 Z2.0000
G00 X61.6966 Y35.2501
G01 Z-2.5000
G01 Z0
G00 Z2.0000
G00 X61.6966 Y37.7901
G01 Z-2.5000
G01 Z0
G00 Z2.0000
G00 X61.6966 Y40.3301
G01 Z-2.5000
G01 Z0
G00 Z2.0000
G00 X61.6966 Y42.8701
G01 Z-2.5000
G01 Z0
G00 Z2.0000
G00 X65.5574 Y42.8701
G01 Z-2.5000
G01 Z0
G00 Z2.0000
G00 X65.5574 Y39.0601
G01 Z-2.5000
G01 Z0
G00 Z2.0000
G00 X65.5574 Y35.2501
G01 Z-2.5000
G01 Z0
G00 Z2.0000
G00 X73.1266 Y35.2501
G01 Z-2.5000
G01 Z0
G00 Z2.0000
G00 X73.1266 Y39.0601
G01 Z-2.5000
G01 Z0
G00 Z2.0000
G00 X73.1266 Y42.8701
G01 Z-2.5000
G01 Z0
G00 Z2.0000
G00 X85.8266 Y50.4901
G01 Z-2.5000
G01 Z0
G00 Z2.0000
G00 X85.8266 Y47.9501
G01 Z-2.5000
G01 Z0
G00 Z2.0000
G00 X85.8266 Y45.4101
G01 Z-2.5000
G01 Z0
G00 Z2.0000
G00 X85.8266 Y42.8701
G01 Z-2.5000
G01 Z0
G00 Z2.0000
G00 X85.8266 Y40.3301
G01 Z-2.5000
G01 Z0
G00 Z2.0000
G00 X85.8266 Y37.7901
G01 Z-2.5000
G01 Z0
G00 Z2.0000
G00 X84.5566 Y31.4401
G01 Z-2.5000
G01 Z0
G00 Z2.0000
G00 X84.5566 Y27.6301
G01 Z-2.5000
G01 Z0
G00 Z2.0000
G00 X76.9874 Y27.6301
G01 Z-2.5000
G01 Z0
G00 Z2.0000
M05
G00 Z2.00
G00 X0.0 Y0.0


