(G-CODE GENERATED BY FLATCAM v8.994 - www.flatcam.org - Version Date: 2020/11/7)

(Name: Q1078-PCB_copperBottom.gbl_mt_paint_cnc)
(Type: G-code from Geometry)
(Units: MM)

(Created on Monday, 20 November 2023 at 09:54)

(This preprocessor is used with a motion controller loaded with GRBL firmware.)
(It is configured to be compatible with almost any version of GRBL firmware.)

(TOOL DIAMETER: 0.5 mm)
(Feedrate_XY: 150.0 mm/min)
(Feedrate_Z: 50.0 mm/min)
(Feedrate rapids 1500.0 mm/min)

(Z_Cut: 0.0 mm)
(Z_Move: 2.0 mm)
(Z Start: None mm)
(Z End: 15.0 mm)
(X,Y End: 0.0000, 0.0000 mm)
(Steps per circle: 64)
(Steps per circle: 64)
(Preprocessor Geometry: GRBL_11_no_M6)

(X range:    8.9244 ...   88.7265  mm)
(Y range:    1.5330 ...   82.6305  mm)

(Spindle Speed: 0.0 RPM)
G21
G90
G17
G94


G01 F150.00

M5             
G00 Z15.0000
G00 X0.0000 Y0.0000                
T2
(MSG, Change to Tool Dia = 0.5000)
M0
G00 Z15.0000
        
M03
G01 F150.00
G00 X8.9244 Y6.0452
G01 F50.00
G01 Z0.0000
G01 F150.00
G01 X8.9278 Y6.1140 F150.00
G01 X8.9379 Y6.1822 F150.00
G01 X8.9546 Y6.2490 F150.00
G01 X8.9779 Y6.3139 F150.00
G01 X9.0073 Y6.3762 F150.00
G01 X9.0427 Y6.4353 F150.00
G01 X9.0838 Y6.4907 F150.00
G01 X9.1301 Y6.5417 F150.00
G01 X9.1811 Y6.5880 F150.00
G01 X9.2365 Y6.6291 F150.00
G01 X9.2956 Y6.6645 F150.00
G01 X9.3579 Y6.6939 F150.00
G01 X9.4228 Y6.7172 F150.00
G01 X9.4896 Y6.7339 F150.00
G01 X9.5578 Y6.7440 F150.00
G01 X9.6266 Y6.7474 F150.00
G01 X9.6954 Y6.7440 F150.00
G01 X9.7636 Y6.7339 F150.00
G01 X9.8304 Y6.7172 F150.00
G01 X9.8953 Y6.6939 F150.00
G01 X9.9576 Y6.6645 F150.00
G01 X10.0167 Y6.6291 F150.00
G01 X10.0721 Y6.5880 F150.00
G01 X10.1231 Y6.5417 F150.00
G01 X10.1694 Y6.4907 F150.00
G01 X10.2105 Y6.4353 F150.00
G01 X10.2459 Y6.3762 F150.00
G01 X10.2753 Y6.3139 F150.00
G01 X10.2986 Y6.2490 F150.00
G01 X10.3153 Y6.1822 F150.00
G01 X10.3254 Y6.1140 F150.00
G01 X10.3288 Y6.0452 F150.00
G01 X10.3254 Y5.9764 F150.00
G01 X10.3153 Y5.9082 F150.00
G01 X10.2986 Y5.8414 F150.00
G01 X10.2753 Y5.7765 F150.00
G01 X10.2459 Y5.7142 F150.00
G01 X10.2105 Y5.6551 F150.00
G01 X10.1694 Y5.5997 F150.00
G01 X10.1231 Y5.5487 F150.00
G01 X10.0721 Y5.5024 F150.00
G01 X10.0167 Y5.4613 F150.00
G01 X9.9576 Y5.4259 F150.00
G01 X9.8953 Y5.3965 F150.00
G01 X9.8304 Y5.3732 F150.00
G01 X9.7636 Y5.3565 F150.00
G01 X9.6954 Y5.3464 F150.00
G01 X9.6266 Y5.3430 F150.00
G01 X9.5578 Y5.3464 F150.00
G01 X9.4896 Y5.3565 F150.00
G01 X9.4228 Y5.3732 F150.00
G01 X9.3579 Y5.3965 F150.00
G01 X9.2956 Y5.4259 F150.00
G01 X9.2365 Y5.4613 F150.00
G01 X9.1811 Y5.5024 F150.00
G01 X9.1301 Y5.5487 F150.00
G01 X9.0838 Y5.5997 F150.00
G01 X9.0427 Y5.6551 F150.00
G01 X9.0073 Y5.7142 F150.00
G01 X8.9779 Y5.7765 F150.00
G01 X8.9546 Y5.8414 F150.00
G01 X8.9379 Y5.9082 F150.00
G01 X8.9278 Y5.9764 F150.00
G01 X8.9244 Y6.0452 F150.00
G01 X9.2598 Y6.0452 F150.00
G01 X9.2616 Y6.0812 F150.00
G01 X9.2669 Y6.1168 F150.00
G01 X9.2756 Y6.1517 F150.00
G01 X9.2877 Y6.1856 F150.00
G01 X9.3031 Y6.2181 F150.00
G01 X9.3216 Y6.2490 F150.00
G01 X9.3431 Y6.2779 F150.00
G01 X9.3672 Y6.3046 F150.00
G01 X9.3939 Y6.3287 F150.00
G01 X9.4228 Y6.3502 F150.00
G01 X9.4537 Y6.3687 F150.00
G01 X9.4862 Y6.3841 F150.00
G01 X9.5201 Y6.3962 F150.00
G01 X9.5550 Y6.4049 F150.00
G01 X9.5906 Y6.4102 F150.00
G01 X9.6266 Y6.4120 F150.00
G01 X9.6626 Y6.4102 F150.00
G01 X9.6982 Y6.4049 F150.00
G01 X9.7331 Y6.3962 F150.00
G01 X9.7670 Y6.3841 F150.00
G01 X9.7995 Y6.3687 F150.00
G01 X9.8304 Y6.3502 F150.00
G01 X9.8593 Y6.3287 F150.00
G01 X9.8860 Y6.3046 F150.00
G01 X9.9101 Y6.2779 F150.00
G01 X9.9316 Y6.2490 F150.00
G01 X9.9501 Y6.2181 F150.00
G01 X9.9655 Y6.1856 F150.00
G01 X9.9776 Y6.1517 F150.00
G01 X9.9863 Y6.1168 F150.00
G01 X9.9916 Y6.0812 F150.00
G01 X9.9934 Y6.0452 F150.00
G01 X9.9916 Y6.0092 F150.00
G01 X9.9863 Y5.9736 F150.00
G01 X9.9776 Y5.9387 F150.00
G01 X9.9655 Y5.9048 F150.00
G01 X9.9501 Y5.8723 F150.00
G01 X9.9316 Y5.8414 F150.00
G01 X9.9101 Y5.8125 F150.00
G01 X9.8860 Y5.7858 F150.00
G01 X9.8593 Y5.7617 F150.00
G01 X9.8304 Y5.7402 F150.00
G01 X9.7995 Y5.7217 F150.00
G01 X9.7670 Y5.7063 F150.00
G01 X9.7331 Y5.6942 F150.00
G01 X9.6982 Y5.6855 F150.00
G01 X9.6626 Y5.6802 F150.00
G01 X9.6266 Y5.6784 F150.00
G01 X9.5906 Y5.6802 F150.00
G01 X9.5550 Y5.6855 F150.00
G01 X9.5201 Y5.6942 F150.00
G01 X9.4862 Y5.7063 F150.00
G01 X9.4537 Y5.7217 F150.00
G01 X9.4228 Y5.7402 F150.00
G01 X9.3939 Y5.7617 F150.00
G01 X9.3672 Y5.7858 F150.00
G01 X9.3431 Y5.8125 F150.00
G01 X9.3216 Y5.8414 F150.00
G01 X9.3031 Y5.8723 F150.00
G01 X9.2877 Y5.9048 F150.00
G01 X9.2756 Y5.9387 F150.00
G01 X9.2669 Y5.9736 F150.00
G01 X9.2616 Y6.0092 F150.00
G01 X9.2598 Y6.0452 F150.00
G01 X9.5952 Y6.0452 F150.00
G01 X9.5958 Y6.0513 F150.00
G01 X9.5976 Y6.0572 F150.00
G01 X9.6005 Y6.0626 F150.00
G01 X9.6044 Y6.0674 F150.00
G01 X9.6092 Y6.0713 F150.00
G01 X9.6146 Y6.0742 F150.00
G01 X9.6205 Y6.0760 F150.00
G01 X9.6266 Y6.0766 F150.00
G01 X9.6327 Y6.0760 F150.00
G01 X9.6386 Y6.0742 F150.00
G01 X9.6440 Y6.0713 F150.00
G01 X9.6488 Y6.0674 F150.00
G01 X9.6527 Y6.0626 F150.00
G01 X9.6556 Y6.0572 F150.00
G01 X9.6574 Y6.0513 F150.00
G01 X9.6580 Y6.0452 F150.00
G01 X9.6574 Y6.0391 F150.00
G01 X9.6556 Y6.0332 F150.00
G01 X9.6527 Y6.0278 F150.00
G01 X9.6488 Y6.0230 F150.00
G01 X9.6440 Y6.0191 F150.00
G01 X9.6386 Y6.0162 F150.00
G01 X9.6327 Y6.0144 F150.00
G01 X9.6266 Y6.0138 F150.00
G01 X9.6205 Y6.0144 F150.00
G01 X9.6146 Y6.0162 F150.00
G01 X9.6092 Y6.0191 F150.00
G01 X9.6044 Y6.0230 F150.00
G01 X9.6005 Y6.0278 F150.00
G01 X9.5976 Y6.0332 F150.00
G01 X9.5958 Y6.0391 F150.00
G01 X9.5952 Y6.0452 F150.00
G00 Z2.0000
G00 X9.5952 Y10.5410
G01 F50.00
G01 Z0.0000
G01 F150.00
G01 X9.5958 Y10.5349 F150.00
G01 X9.5976 Y10.5290 F150.00
G01 X9.6005 Y10.5236 F150.00
G01 X9.6044 Y10.5188 F150.00
G01 X9.6092 Y10.5149 F150.00
G01 X9.6146 Y10.5120 F150.00
G01 X9.6205 Y10.5102 F150.00
G01 X9.6266 Y10.5096 F150.00
G01 X9.6327 Y10.5102 F150.00
G01 X9.6386 Y10.5120 F150.00
G01 X9.6440 Y10.5149 F150.00
G01 X9.6488 Y10.5188 F150.00
G01 X9.6527 Y10.5236 F150.00
G01 X9.6556 Y10.5290 F150.00
G01 X9.6574 Y10.5349 F150.00
G01 X9.6580 Y10.5410 F150.00
G01 X9.6574 Y10.5471 F150.00
G01 X9.6556 Y10.5530 F150.00
G01 X9.6527 Y10.5584 F150.00
G01 X9.6488 Y10.5632 F150.00
G01 X9.6440 Y10.5671 F150.00
G01 X9.6386 Y10.5700 F150.00
G01 X9.6327 Y10.5718 F150.00
G01 X9.6266 Y10.5724 F150.00
G01 X9.6205 Y10.5718 F150.00
G01 X9.6146 Y10.5700 F150.00
G01 X9.6092 Y10.5671 F150.00
G01 X9.6044 Y10.5632 F150.00
G01 X9.6005 Y10.5584 F150.00
G01 X9.5976 Y10.5530 F150.00
G01 X9.5958 Y10.5471 F150.00
G01 X9.5952 Y10.5410 F150.00
G01 X9.2598 Y10.5410 F150.00
G01 X9.2616 Y10.5050 F150.00
G01 X9.2669 Y10.4694 F150.00
G01 X9.2756 Y10.4345 F150.00
G01 X9.2877 Y10.4006 F150.00
G01 X9.3031 Y10.3681 F150.00
G01 X9.3216 Y10.3372 F150.00
G01 X9.3431 Y10.3083 F150.00
G01 X9.3672 Y10.2816 F150.00
G01 X9.3939 Y10.2575 F150.00
G01 X9.4228 Y10.2360 F150.00
G01 X9.4537 Y10.2175 F150.00
G01 X9.4862 Y10.2021 F150.00
G01 X9.5201 Y10.1900 F150.00
G01 X9.5550 Y10.1813 F150.00
G01 X9.5906 Y10.1760 F150.00
G01 X9.6266 Y10.1742 F150.00
G01 X9.6626 Y10.1760 F150.00
G01 X9.6982 Y10.1813 F150.00
G01 X9.7331 Y10.1900 F150.00
G01 X9.7670 Y10.2021 F150.00
G01 X9.7995 Y10.2175 F150.00
G01 X9.8304 Y10.2360 F150.00
G01 X9.8593 Y10.2575 F150.00
G01 X9.8860 Y10.2816 F150.00
G01 X9.9101 Y10.3083 F150.00
G01 X9.9316 Y10.3372 F150.00
G01 X9.9501 Y10.3681 F150.00
G01 X9.9655 Y10.4006 F150.00
G01 X9.9776 Y10.4345 F150.00
G01 X9.9863 Y10.4694 F150.00
G01 X9.9916 Y10.5050 F150.00
G01 X9.9934 Y10.5410 F150.00
G01 X9.9916 Y10.5770 F150.00
G01 X9.9863 Y10.6126 F150.00
G01 X9.9776 Y10.6475 F150.00
G01 X9.9655 Y10.6814 F150.00
G01 X9.9501 Y10.7139 F150.00
G01 X9.9316 Y10.7448 F150.00
G01 X9.9101 Y10.7737 F150.00
G01 X9.8860 Y10.8004 F150.00
G01 X9.8593 Y10.8245 F150.00
G01 X9.8304 Y10.8460 F150.00
G01 X9.7995 Y10.8645 F150.00
G01 X9.7670 Y10.8799 F150.00
G01 X9.7331 Y10.8920 F150.00
G01 X9.6982 Y10.9007 F150.00
G01 X9.6626 Y10.9060 F150.00
G01 X9.6266 Y10.9078 F150.00
G01 X9.5906 Y10.9060 F150.00
G01 X9.5550 Y10.9007 F150.00
G01 X9.5201 Y10.8920 F150.00
G01 X9.4862 Y10.8799 F150.00
G01 X9.4537 Y10.8645 F150.00
G01 X9.4228 Y10.8460 F150.00
G01 X9.3939 Y10.8245 F150.00
G01 X9.3672 Y10.8004 F150.00
G01 X9.3431 Y10.7737 F150.00
G01 X9.3216 Y10.7448 F150.00
G01 X9.3031 Y10.7139 F150.00
G01 X9.2877 Y10.6814 F150.00
G01 X9.2756 Y10.6475 F150.00
G01 X9.2669 Y10.6126 F150.00
G01 X9.2616 Y10.5770 F150.00
G01 X9.2598 Y10.5410 F150.00
G01 X8.9244 Y10.5410 F150.00
G01 X8.9278 Y10.4722 F150.00
G01 X8.9379 Y10.4040 F150.00
G01 X8.9546 Y10.3372 F150.00
G01 X8.9779 Y10.2723 F150.00
G01 X9.0073 Y10.2100 F150.00
G01 X9.0427 Y10.1509 F150.00
G01 X9.0838 Y10.0955 F150.00
G01 X9.1301 Y10.0445 F150.00
G01 X9.1811 Y9.9982 F150.00
G01 X9.2365 Y9.9571 F150.00
G01 X9.2956 Y9.9217 F150.00
G01 X9.3579 Y9.8923 F150.00
G01 X9.4228 Y9.8690 F150.00
G01 X9.4896 Y9.8523 F150.00
G01 X9.5578 Y9.8422 F150.00
G01 X9.6266 Y9.8388 F150.00
G01 X9.6954 Y9.8422 F150.00
G01 X9.7636 Y9.8523 F150.00
G01 X9.8304 Y9.8690 F150.00
G01 X9.8953 Y9.8923 F150.00
G01 X9.9576 Y9.9217 F150.00
G01 X10.0167 Y9.9571 F150.00
G01 X10.0721 Y9.9982 F150.00
G01 X10.1231 Y10.0445 F150.00
G01 X10.1694 Y10.0955 F150.00
G01 X10.2105 Y10.1509 F150.00
G01 X10.2459 Y10.2100 F150.00
G01 X10.2753 Y10.2723 F150.00
G01 X10.2986 Y10.3372 F150.00
G01 X10.3153 Y10.4040 F150.00
G01 X10.3254 Y10.4722 F150.00
G01 X10.3288 Y10.5410 F150.00
G01 X10.3254 Y10.6098 F150.00
G01 X10.3153 Y10.6780 F150.00
G01 X10.2986 Y10.7448 F150.00
G01 X10.2753 Y10.8097 F150.00
G01 X10.2459 Y10.8720 F150.00
G01 X10.2105 Y10.9311 F150.00
G01 X10.1694 Y10.9865 F150.00
G01 X10.1231 Y11.0375 F150.00
G01 X10.0721 Y11.0838 F150.00
G01 X10.0167 Y11.1249 F150.00
G01 X9.9576 Y11.1603 F150.00
G01 X9.8953 Y11.1897 F150.00
G01 X9.8304 Y11.2130 F150.00
G01 X9.7636 Y11.2297 F150.00
G01 X9.6954 Y11.2398 F150.00
G01 X9.6266 Y11.2432 F150.00
G01 X9.5578 Y11.2398 F150.00
G01 X9.4896 Y11.2297 F150.00
G01 X9.4228 Y11.2130 F150.00
G01 X9.3579 Y11.1897 F150.00
G01 X9.2956 Y11.1603 F150.00
G01 X9.2365 Y11.1249 F150.00
G01 X9.1811 Y11.0838 F150.00
G01 X9.1301 Y11.0375 F150.00
G01 X9.0838 Y10.9865 F150.00
G01 X9.0427 Y10.9311 F150.00
G01 X9.0073 Y10.8720 F150.00
G01 X8.9779 Y10.8097 F150.00
G01 X8.9546 Y10.7448 F150.00
G01 X8.9379 Y10.6780 F150.00
G01 X8.9278 Y10.6098 F150.00
G01 X8.9244 Y10.5410 F150.00
G00 Z2.0000
G00 X16.1290 Y10.5833
G01 F50.00
G01 Z0.0000
G01 F150.00
G01 X16.1512 Y10.5632 F150.00
G01 X16.1533 Y10.5609 F150.00
G01 X16.1567 Y10.5558 F150.00
G01 X16.1590 Y10.5501 F150.00
G01 X16.1598 Y10.5471 F150.00
G01 X16.1604 Y10.5410 F150.00
G01 X16.1598 Y10.5349 F150.00
G01 X16.1580 Y10.5290 F150.00
G01 X16.1551 Y10.5236 F150.00
G01 X16.1512 Y10.5188 F150.00
G01 X16.1464 Y10.5149 F150.00
G01 X16.1410 Y10.5120 F150.00
G01 X16.1351 Y10.5102 F150.00
G01 X16.1290 Y10.5096 F150.00
G01 X16.1229 Y10.5102 F150.00
G01 X16.1170 Y10.5120 F150.00
G01 X16.1116 Y10.5149 F150.00
G01 X16.1068 Y10.5188 F150.00
G01 X16.1029 Y10.5236 F150.00
G01 X16.1000 Y10.5290 F150.00
G01 X16.0982 Y10.5349 F150.00
G01 X16.0976 Y10.5410 F150.00
G01 X16.0978 Y10.5441 F150.00
G01 X16.0990 Y10.5501 F150.00
G01 X16.1013 Y10.5558 F150.00
G01 X16.1047 Y10.5609 F150.00
G01 X16.1068 Y10.5632 F150.00
G01 X16.1290 Y10.5833 F150.00
G00 Z2.0000
G00 X16.0867 Y6.0452
G01 F50.00
G01 Z0.0000
G01 F150.00
G01 X16.1091 Y6.0695 F150.00
G01 X16.1142 Y6.0729 F150.00
G01 X16.1199 Y6.0752 F150.00
G01 X16.1259 Y6.0764 F150.00
G01 X16.1290 Y6.0766 F150.00
G01 X16.1351 Y6.0760 F150.00
G01 X16.1381 Y6.0752 F150.00
G01 X16.1438 Y6.0729 F150.00
G01 X16.1489 Y6.0695 F150.00
G01 X16.1512 Y6.0674 F150.00
G01 X16.1713 Y6.0452 F150.00
G01 X16.1512 Y6.0230 F150.00
G01 X16.1489 Y6.0209 F150.00
G01 X16.1464 Y6.0191 F150.00
G01 X16.1410 Y6.0162 F150.00
G01 X16.1351 Y6.0144 F150.00
G01 X16.1290 Y6.0138 F150.00
G01 X16.1229 Y6.0144 F150.00
G01 X16.1199 Y6.0152 F150.00
G01 X16.1142 Y6.0175 F150.00
G01 X16.1116 Y6.0191 F150.00
G01 X16.1068 Y6.0230 F150.00
G01 X16.0867 Y6.0452 F150.00
G00 Z2.0000
G00 X24.8310 Y2.2564
G01 F50.00
G01 Z0.0000
G01 F150.00
G01 X24.8605 Y2.2660 F150.00
G01 X24.8666 Y2.2666 F150.00
G01 X24.8697 Y2.2664 F150.00
G01 X24.8757 Y2.2652 F150.00
G01 X24.8814 Y2.2629 F150.00
G01 X24.8865 Y2.2595 F150.00
G01 X24.8888 Y2.2574 F150.00
G01 X24.9089 Y2.2352 F150.00
G01 X24.8888 Y2.2130 F150.00
G01 X24.8865 Y2.2109 F150.00
G01 X24.8814 Y2.2075 F150.00
G01 X24.8757 Y2.2052 F150.00
G01 X24.8697 Y2.2040 F150.00
G01 X24.8635 Y2.2040 F150.00
G01 X24.8575 Y2.2052 F150.00
G01 X24.8518 Y2.2075 F150.00
G01 X24.8467 Y2.2109 F150.00
G01 X24.8423 Y2.2153 F150.00
G01 X24.8389 Y2.2204 F150.00
G01 X24.8366 Y2.2261 F150.00
G01 X24.8357 Y2.2296 F150.00
G01 X24.8310 Y2.2564 F150.00
G00 Z2.0000
G00 X25.9368 Y8.2862
G01 F50.00
G01 Z0.0000
G01 F150.00
G01 X25.9085 Y8.3072 F150.00
G01 X25.8778 Y8.3351 F150.00
G01 X24.6165 Y9.5964 F150.00
G01 X24.5886 Y9.6271 F150.00
G01 X24.5676 Y9.6554 F150.00
G01 X24.5495 Y9.6857 F150.00
G01 X24.5344 Y9.7176 F150.00
G01 X24.5225 Y9.7508 F150.00
G01 X24.5139 Y9.7850 F150.00
G01 X24.5087 Y9.8200 F150.00
G01 X24.5067 Y9.8613 F150.00
G01 X24.5067 Y11.6640 F150.00
G01 X24.5061 Y11.6814 F150.00
G01 X24.5043 Y11.6987 F150.00
G01 X24.5013 Y11.7158 F150.00
G01 X24.4986 Y11.7271 F150.00
G01 X24.4954 Y11.7382 F150.00
G01 X24.4897 Y11.7546 F150.00
G01 X24.4828 Y11.7706 F150.00
G01 X24.4777 Y11.7810 F150.00
G01 X24.4690 Y11.7960 F150.00
G01 X24.4627 Y11.8057 F150.00
G01 X24.4559 Y11.8151 F150.00
G01 X24.4486 Y11.8242 F150.00
G01 X24.4371 Y11.8372 F150.00
G01 X24.4246 Y11.8493 F150.00
G01 X24.3701 Y11.8987 F150.00
G01 X24.3238 Y11.9497 F150.00
G01 X24.2827 Y12.0051 F150.00
G01 X24.2473 Y12.0642 F150.00
G01 X24.2179 Y12.1265 F150.00
G01 X24.1946 Y12.1914 F150.00
G01 X24.1779 Y12.2582 F150.00
G01 X24.1678 Y12.3264 F150.00
G01 X24.1644 Y12.3952 F150.00
G01 X24.1678 Y12.4640 F150.00
G01 X24.1779 Y12.5322 F150.00
G01 X24.1946 Y12.5990 F150.00
G01 X24.2179 Y12.6639 F150.00
G01 X24.2473 Y12.7262 F150.00
G01 X24.2827 Y12.7853 F150.00
G01 X24.3238 Y12.8407 F150.00
G01 X24.3701 Y12.8917 F150.00
G01 X24.4211 Y12.9380 F150.00
G01 X24.4765 Y12.9791 F150.00
G01 X24.5356 Y13.0145 F150.00
G01 X24.5979 Y13.0439 F150.00
G01 X24.6628 Y13.0672 F150.00
G01 X24.7296 Y13.0839 F150.00
G01 X24.7978 Y13.0940 F150.00
G01 X24.8666 Y13.0974 F150.00
G01 X24.9354 Y13.0940 F150.00
G01 X25.0036 Y13.0839 F150.00
G01 X25.0704 Y13.0672 F150.00
G01 X25.1353 Y13.0439 F150.00
G01 X25.1976 Y13.0145 F150.00
G01 X25.2567 Y12.9791 F150.00
G01 X25.3121 Y12.9380 F150.00
G01 X25.3631 Y12.8917 F150.00
G01 X25.4094 Y12.8407 F150.00
G01 X25.4505 Y12.7853 F150.00
G01 X25.4859 Y12.7262 F150.00
G01 X25.5153 Y12.6639 F150.00
G01 X25.5386 Y12.5990 F150.00
G01 X25.5553 Y12.5322 F150.00
G01 X25.5654 Y12.4640 F150.00
G01 X25.5688 Y12.3952 F150.00
G01 X25.5654 Y12.3264 F150.00
G01 X25.5553 Y12.2582 F150.00
G01 X25.5386 Y12.1914 F150.00
G01 X25.5153 Y12.1265 F150.00
G01 X25.4859 Y12.0642 F150.00
G01 X25.4505 Y12.0051 F150.00
G01 X25.4094 Y11.9497 F150.00
G01 X25.3631 Y11.8987 F150.00
G01 X25.3086 Y11.8493 F150.00
G01 X25.2961 Y11.8372 F150.00
G01 X25.2883 Y11.8286 F150.00
G01 X25.2809 Y11.8197 F150.00
G01 X25.2739 Y11.8105 F150.00
G01 X25.2642 Y11.7960 F150.00
G01 X25.2583 Y11.7861 F150.00
G01 X25.2504 Y11.7706 F150.00
G01 X25.2457 Y11.7600 F150.00
G01 X25.2415 Y11.7492 F150.00
G01 X25.2378 Y11.7382 F150.00
G01 X25.2332 Y11.7215 F150.00
G01 X25.2298 Y11.7044 F150.00
G01 X25.2282 Y11.6929 F150.00
G01 X25.2271 Y11.6814 F150.00
G01 X25.2265 Y11.6640 F150.00
G01 X25.2265 Y10.1078 F150.00
G01 X25.2268 Y10.0956 F150.00
G01 X25.2277 Y10.0833 F150.00
G01 X25.2292 Y10.0711 F150.00
G01 X25.2313 Y10.0591 F150.00
G01 X25.2356 Y10.0412 F150.00
G01 X25.2391 Y10.0294 F150.00
G01 X25.2455 Y10.0122 F150.00
G01 X25.2532 Y9.9954 F150.00
G01 X25.2621 Y9.9793 F150.00
G01 X25.2721 Y9.9639 F150.00
G01 X25.2833 Y9.9492 F150.00
G01 X25.2954 Y9.9354 F150.00
G01 X26.2168 Y9.0140 F150.00
G01 X26.2259 Y9.0058 F150.00
G01 X26.2354 Y8.9980 F150.00
G01 X26.2453 Y8.9907 F150.00
G01 X26.2555 Y8.9839 F150.00
G01 X26.2660 Y8.9776 F150.00
G01 X26.2768 Y8.9718 F150.00
G01 X26.2936 Y8.9641 F150.00
G01 X26.3108 Y8.9577 F150.00
G01 X26.3226 Y8.9542 F150.00
G01 X26.3345 Y8.9512 F150.00
G01 X26.3465 Y8.9488 F150.00
G01 X26.3586 Y8.9470 F150.00
G01 X26.3708 Y8.9458 F150.00
G01 X26.3831 Y8.9452 F150.00
G01 X28.2105 Y8.9451 F150.00
G01 X28.2236 Y8.9454 F150.00
G01 X28.2368 Y8.9465 F150.00
G01 X28.2498 Y8.9482 F150.00
G01 X28.2627 Y8.9506 F150.00
G01 X28.2755 Y8.9537 F150.00
G01 X28.2881 Y8.9574 F150.00
G01 X28.3005 Y8.9619 F150.00
G01 X28.3186 Y8.9697 F150.00
G01 X28.3360 Y8.9789 F150.00
G01 X28.3527 Y8.9895 F150.00
G01 X28.3684 Y9.0013 F150.00
G01 X28.3787 Y9.0101 F150.00
G01 X28.4220 Y9.0423 F150.00
G01 X28.4683 Y9.0700 F150.00
G01 X28.5170 Y9.0931 F150.00
G01 X28.5678 Y9.1112 F150.00
G01 X28.6202 Y9.1243 F150.00
G01 X28.6735 Y9.1322 F150.00
G01 X28.7274 Y9.1349 F150.00
G01 X28.7813 Y9.1322 F150.00
G01 X28.8346 Y9.1243 F150.00
G01 X28.8870 Y9.1112 F150.00
G01 X28.9378 Y9.0931 F150.00
G01 X28.9865 Y9.0700 F150.00
G01 X29.0328 Y9.0423 F150.00
G01 X29.0761 Y9.0101 F150.00
G01 X29.1161 Y8.9739 F150.00
G01 X29.1523 Y8.9339 F150.00
G01 X29.1845 Y8.8906 F150.00
G01 X29.2122 Y8.8443 F150.00
G01 X29.2353 Y8.7956 F150.00
G01 X29.2534 Y8.7448 F150.00
G01 X29.2665 Y8.6924 F150.00
G01 X29.2744 Y8.6391 F150.00
G01 X29.2771 Y8.5852 F150.00
G01 X29.2744 Y8.5313 F150.00
G01 X29.2665 Y8.4780 F150.00
G01 X29.2534 Y8.4256 F150.00
G01 X29.2353 Y8.3748 F150.00
G01 X29.2122 Y8.3261 F150.00
G01 X29.1845 Y8.2798 F150.00
G01 X29.1523 Y8.2365 F150.00
G01 X29.1161 Y8.1965 F150.00
G01 X29.0761 Y8.1603 F150.00
G01 X29.0328 Y8.1281 F150.00
G01 X28.9865 Y8.1004 F150.00
G01 X28.9378 Y8.0773 F150.00
G01 X28.8870 Y8.0592 F150.00
G01 X28.8346 Y8.0461 F150.00
G01 X28.7813 Y8.0382 F150.00
G01 X28.7274 Y8.0355 F150.00
G01 X28.6735 Y8.0382 F150.00
G01 X28.6202 Y8.0461 F150.00
G01 X28.5678 Y8.0592 F150.00
G01 X28.5170 Y8.0773 F150.00
G01 X28.4683 Y8.1004 F150.00
G01 X28.4220 Y8.1281 F150.00
G01 X28.3787 Y8.1603 F150.00
G01 X28.3684 Y8.1691 F150.00
G01 X28.3527 Y8.1809 F150.00
G01 X28.3360 Y8.1915 F150.00
G01 X28.3186 Y8.2007 F150.00
G01 X28.3005 Y8.2085 F150.00
G01 X28.2881 Y8.2130 F150.00
G01 X28.2755 Y8.2167 F150.00
G01 X28.2627 Y8.2198 F150.00
G01 X28.2498 Y8.2222 F150.00
G01 X28.2302 Y8.2245 F150.00
G01 X28.2105 Y8.2253 F150.00
G01 X26.1427 Y8.2253 F150.00
G01 X26.1014 Y8.2273 F150.00
G01 X26.0664 Y8.2325 F150.00
G01 X26.0322 Y8.2411 F150.00
G01 X25.9990 Y8.2530 F150.00
G01 X25.9671 Y8.2681 F150.00
G01 X25.9368 Y8.2862 F150.00
G01 X26.1232 Y8.5651 F150.00
G01 X26.1104 Y8.5763 F150.00
G01 X24.8591 Y9.8274 F150.00
G01 X24.8479 Y9.8398 F150.00
G01 X24.8453 Y9.8438 F150.00
G01 X24.8434 Y9.8482 F150.00
G01 X24.8425 Y9.8528 F150.00
G01 X24.8417 Y9.8696 F150.00
G01 X24.8417 Y11.6640 F150.00
G01 X24.8414 Y11.6815 F150.00
G01 X24.8405 Y11.7008 F150.00
G01 X24.8388 Y11.7221 F150.00
G01 X24.8366 Y11.7413 F150.00
G01 X24.8309 Y11.7757 F150.00
G01 X24.8251 Y11.8022 F150.00
G01 X24.8165 Y11.8339 F150.00
G01 X24.8080 Y11.8597 F150.00
G01 X24.7953 Y11.8922 F150.00
G01 X24.7842 Y11.9169 F150.00
G01 X24.7719 Y11.9411 F150.00
G01 X24.7555 Y11.9696 F150.00
G01 X24.7440 Y11.9876 F150.00
G01 X24.7285 Y12.0099 F150.00
G01 X24.7120 Y12.0313 F150.00
G01 X24.6945 Y12.0521 F150.00
G01 X24.6760 Y12.0719 F150.00
G01 X24.6623 Y12.0856 F150.00
G01 X24.6072 Y12.1358 F150.00
G01 X24.5831 Y12.1625 F150.00
G01 X24.5616 Y12.1914 F150.00
G01 X24.5431 Y12.2223 F150.00
G01 X24.5277 Y12.2548 F150.00
G01 X24.5156 Y12.2887 F150.00
G01 X24.5069 Y12.3236 F150.00
G01 X24.5016 Y12.3592 F150.00
G01 X24.4998 Y12.3952 F150.00
G01 X24.5016 Y12.4312 F150.00
G01 X24.5069 Y12.4668 F150.00
G01 X24.5156 Y12.5017 F150.00
G01 X24.5277 Y12.5356 F150.00
G01 X24.5431 Y12.5681 F150.00
G01 X24.5616 Y12.5990 F150.00
G01 X24.5831 Y12.6279 F150.00
G01 X24.6072 Y12.6546 F150.00
G01 X24.6339 Y12.6787 F150.00
G01 X24.6628 Y12.7002 F150.00
G01 X24.6937 Y12.7187 F150.00
G01 X24.7262 Y12.7341 F150.00
G01 X24.7601 Y12.7462 F150.00
G01 X24.7950 Y12.7549 F150.00
G01 X24.8306 Y12.7602 F150.00
G01 X24.8666 Y12.7620 F150.00
G01 X24.9026 Y12.7602 F150.00
G01 X24.9382 Y12.7549 F150.00
G01 X24.9731 Y12.7462 F150.00
G01 X25.0070 Y12.7341 F150.00
G01 X25.0395 Y12.7187 F150.00
G01 X25.0704 Y12.7002 F150.00
G01 X25.0993 Y12.6787 F150.00
G01 X25.1260 Y12.6546 F150.00
G01 X25.1501 Y12.6279 F150.00
G01 X25.1716 Y12.5990 F150.00
G01 X25.1901 Y12.5681 F150.00
G01 X25.2055 Y12.5356 F150.00
G01 X25.2176 Y12.5017 F150.00
G01 X25.2263 Y12.4668 F150.00
G01 X25.2316 Y12.4312 F150.00
G01 X25.2334 Y12.3952 F150.00
G01 X25.2316 Y12.3592 F150.00
G01 X25.2263 Y12.3236 F150.00
G01 X25.2176 Y12.2887 F150.00
G01 X25.2055 Y12.2548 F150.00
G01 X25.1901 Y12.2223 F150.00
G01 X25.1716 Y12.1914 F150.00
G01 X25.1501 Y12.1625 F150.00
G01 X25.1260 Y12.1358 F150.00
G01 X25.0709 Y12.0856 F150.00
G01 X25.0518 Y12.0663 F150.00
G01 X25.0387 Y12.0521 F150.00
G01 X25.0212 Y12.0313 F150.00
G01 X25.0047 Y12.0099 F150.00
G01 X24.9892 Y11.9876 F150.00
G01 X24.9747 Y11.9647 F150.00
G01 X24.9613 Y11.9411 F150.00
G01 X24.9457 Y11.9099 F150.00
G01 X24.9327 Y11.8797 F150.00
G01 X24.9233 Y11.8542 F150.00
G01 X24.9129 Y11.8209 F150.00
G01 X24.9063 Y11.7946 F150.00
G01 X24.8998 Y11.7624 F150.00
G01 X24.8959 Y11.7355 F150.00
G01 X24.8927 Y11.7008 F150.00
G01 X24.8918 Y11.6815 F150.00
G01 X24.8915 Y11.6640 F150.00
G01 X24.8915 Y10.1037 F150.00
G01 X24.8920 Y10.0832 F150.00
G01 X24.8934 Y10.0607 F150.00
G01 X24.8954 Y10.0403 F150.00
G01 X24.8985 Y10.0179 F150.00
G01 X24.9020 Y9.9977 F150.00
G01 X24.9066 Y9.9757 F150.00
G01 X24.9116 Y9.9558 F150.00
G01 X24.9179 Y9.9341 F150.00
G01 X24.9271 Y9.9069 F150.00
G01 X24.9345 Y9.8878 F150.00
G01 X24.9400 Y9.8745 F150.00
G01 X24.9521 Y9.8485 F150.00
G01 X24.9625 Y9.8284 F150.00
G01 X24.9696 Y9.8159 F150.00
G01 X24.9769 Y9.8036 F150.00
G01 X24.9878 Y9.7863 F150.00
G01 X25.0042 Y9.7627 F150.00
G01 X25.0128 Y9.7512 F150.00
G01 X25.0269 Y9.7335 F150.00
G01 X25.0458 Y9.7119 F150.00
G01 X25.0628 Y9.6942 F150.00
G01 X25.9756 Y8.7814 F150.00
G01 X25.9933 Y8.7644 F150.00
G01 X26.0149 Y8.7455 F150.00
G01 X26.0326 Y8.7314 F150.00
G01 X26.0558 Y8.7145 F150.00
G01 X26.0797 Y8.6987 F150.00
G01 X26.0973 Y8.6882 F150.00
G01 X26.1225 Y8.6744 F150.00
G01 X26.1428 Y8.6645 F150.00
G01 X26.1692 Y8.6531 F150.00
G01 X26.1883 Y8.6457 F150.00
G01 X26.2155 Y8.6365 F150.00
G01 X26.2372 Y8.6302 F150.00
G01 X26.2651 Y8.6234 F150.00
G01 X26.2933 Y8.6180 F150.00
G01 X26.3217 Y8.6140 F150.00
G01 X26.3421 Y8.6120 F150.00
G01 X26.3646 Y8.6106 F150.00
G01 X26.3892 Y8.6101 F150.00
G01 X28.2105 Y8.6101 F150.00
G01 X28.2369 Y8.6107 F150.00
G01 X28.2610 Y8.6123 F150.00
G01 X28.2828 Y8.6146 F150.00
G01 X28.3068 Y8.6181 F150.00
G01 X28.3327 Y8.6230 F150.00
G01 X28.3583 Y8.6291 F150.00
G01 X28.3816 Y8.6357 F150.00
G01 X28.4025 Y8.6425 F150.00
G01 X28.4312 Y8.6534 F150.00
G01 X28.4535 Y8.6629 F150.00
G01 X28.4811 Y8.6765 F150.00
G01 X28.5042 Y8.6892 F150.00
G01 X28.5267 Y8.7029 F150.00
G01 X28.5521 Y8.7202 F150.00
G01 X28.5715 Y8.7347 F150.00
G01 X28.5883 Y8.7485 F150.00
G01 X28.6084 Y8.7634 F150.00
G01 X28.6264 Y8.7742 F150.00
G01 X28.6454 Y8.7832 F150.00
G01 X28.6652 Y8.7903 F150.00
G01 X28.6856 Y8.7954 F150.00
G01 X28.7064 Y8.7985 F150.00
G01 X28.7274 Y8.7995 F150.00
G01 X28.7484 Y8.7985 F150.00
G01 X28.7692 Y8.7954 F150.00
G01 X28.7896 Y8.7903 F150.00
G01 X28.8094 Y8.7832 F150.00
G01 X28.8284 Y8.7742 F150.00
G01 X28.8465 Y8.7634 F150.00
G01 X28.8633 Y8.7508 F150.00
G01 X28.8789 Y8.7367 F150.00
G01 X28.8930 Y8.7211 F150.00
G01 X28.9056 Y8.7043 F150.00
G01 X28.9164 Y8.6862 F150.00
G01 X28.9254 Y8.6672 F150.00
G01 X28.9325 Y8.6474 F150.00
G01 X28.9376 Y8.6270 F150.00
G01 X28.9407 Y8.6062 F150.00
G01 X28.9417 Y8.5852 F150.00
G01 X28.9407 Y8.5642 F150.00
G01 X28.9376 Y8.5434 F150.00
G01 X28.9325 Y8.5230 F150.00
G01 X28.9254 Y8.5032 F150.00
G01 X28.9164 Y8.4842 F150.00
G01 X28.9056 Y8.4661 F150.00
G01 X28.8930 Y8.4493 F150.00
G01 X28.8789 Y8.4337 F150.00
G01 X28.8633 Y8.4196 F150.00
G01 X28.8465 Y8.4070 F150.00
G01 X28.8284 Y8.3962 F150.00
G01 X28.8094 Y8.3872 F150.00
G01 X28.7896 Y8.3801 F150.00
G01 X28.7692 Y8.3750 F150.00
G01 X28.7484 Y8.3719 F150.00
G01 X28.7274 Y8.3709 F150.00
G01 X28.7064 Y8.3719 F150.00
G01 X28.6856 Y8.3750 F150.00
G01 X28.6652 Y8.3801 F150.00
G01 X28.6454 Y8.3872 F150.00
G01 X28.6264 Y8.3962 F150.00
G01 X28.6083 Y8.4070 F150.00
G01 X28.5887 Y8.4216 F150.00
G01 X28.5715 Y8.4357 F150.00
G01 X28.5557 Y8.4476 F150.00
G01 X28.5341 Y8.4627 F150.00
G01 X28.5136 Y8.4756 F150.00
G01 X28.4946 Y8.4866 F150.00
G01 X28.4733 Y8.4980 F150.00
G01 X28.4494 Y8.5093 F150.00
G01 X28.4251 Y8.5195 F150.00
G01 X28.4025 Y8.5279 F150.00
G01 X28.3879 Y8.5328 F150.00
G01 X28.3668 Y8.5390 F150.00
G01 X28.3434 Y8.5450 F150.00
G01 X28.3219 Y8.5496 F150.00
G01 X28.2981 Y8.5537 F150.00
G01 X28.2719 Y8.5571 F150.00
G01 X28.2522 Y8.5588 F150.00
G01 X28.2303 Y8.5600 F150.00
G01 X28.2105 Y8.5603 F150.00
G01 X26.1510 Y8.5603 F150.00
G01 X26.1319 Y8.5615 F150.00
G01 X26.1273 Y8.5628 F150.00
G01 X26.1232 Y8.5651 F150.00
G00 Z2.0000
G00 X24.8666 Y12.3529
G01 F50.00
G01 Z0.0000
G01 F150.00
G01 X24.8444 Y12.3730 F150.00
G01 X24.8423 Y12.3753 F150.00
G01 X24.8405 Y12.3778 F150.00
G01 X24.8376 Y12.3832 F150.00
G01 X24.8358 Y12.3891 F150.00
G01 X24.8352 Y12.3952 F150.00
G01 X24.8358 Y12.4013 F150.00
G01 X24.8376 Y12.4072 F150.00
G01 X24.8405 Y12.4126 F150.00
G01 X24.8444 Y12.4174 F150.00
G01 X24.8492 Y12.4213 F150.00
G01 X24.8546 Y12.4242 F150.00
G01 X24.8605 Y12.4260 F150.00
G01 X24.8666 Y12.4266 F150.00
G01 X24.8727 Y12.4260 F150.00
G01 X24.8786 Y12.4242 F150.00
G01 X24.8840 Y12.4213 F150.00
G01 X24.8888 Y12.4174 F150.00
G01 X24.8927 Y12.4126 F150.00
G01 X24.8956 Y12.4072 F150.00
G01 X24.8974 Y12.4013 F150.00
G01 X24.8980 Y12.3952 F150.00
G01 X24.8974 Y12.3891 F150.00
G01 X24.8956 Y12.3832 F150.00
G01 X24.8943 Y12.3804 F150.00
G01 X24.8909 Y12.3753 F150.00
G01 X24.8888 Y12.3730 F150.00
G01 X24.8666 Y12.3529 F150.00
G00 Z2.0000
G00 X30.6666 Y9.1426
G01 F50.00
G01 Z0.0000
G01 F150.00
G01 X30.6846 Y9.1478 F150.00
G01 X30.7018 Y9.1543 F150.00
G01 X30.7186 Y9.1619 F150.00
G01 X30.7294 Y9.1677 F150.00
G01 X30.7399 Y9.1741 F150.00
G01 X30.7551 Y9.1845 F150.00
G01 X30.7648 Y9.1921 F150.00
G01 X30.7741 Y9.2001 F150.00
G01 X30.7873 Y9.2130 F150.00
G01 X30.7955 Y9.2221 F150.00
G01 X30.8033 Y9.2316 F150.00
G01 X30.8106 Y9.2414 F150.00
G01 X30.8174 Y9.2517 F150.00
G01 X30.8267 Y9.2676 F150.00
G01 X30.8347 Y9.2842 F150.00
G01 X30.8394 Y9.2955 F150.00
G01 X30.8436 Y9.3071 F150.00
G01 X30.8487 Y9.3248 F150.00
G01 X30.8525 Y9.3428 F150.00
G01 X30.8542 Y9.3550 F150.00
G01 X30.8554 Y9.3672 F150.00
G01 X30.8561 Y9.3856 F150.00
G01 X30.8313 Y25.1139 F150.00
G01 X30.8318 Y25.1327 F150.00
G01 X30.8333 Y25.1554 F150.00
G01 X30.8347 Y25.1678 F150.00
G01 X30.8384 Y25.1903 F150.00
G01 X30.8411 Y25.2026 F150.00
G01 X30.8470 Y25.2246 F150.00
G01 X30.8508 Y25.2365 F150.00
G01 X30.8588 Y25.2578 F150.00
G01 X30.8638 Y25.2693 F150.00
G01 X30.8738 Y25.2897 F150.00
G01 X30.8799 Y25.3007 F150.00
G01 X30.8920 Y25.3200 F150.00
G01 X30.9025 Y25.3356 F150.00
G01 X37.1343 Y34.0103 F150.00
G01 X37.1451 Y34.0265 F150.00
G01 X37.1515 Y34.0378 F150.00
G01 X37.1574 Y34.0494 F150.00
G01 X37.1650 Y34.0673 F150.00
G01 X37.1693 Y34.0795 F150.00
G01 X37.1729 Y34.0920 F150.00
G01 X37.1759 Y34.1046 F150.00
G01 X37.1792 Y34.1238 F150.00
G01 X37.1810 Y34.1432 F150.00
G01 X37.1813 Y34.1562 F150.00
G01 X37.1813 Y49.1937 F150.00
G01 X37.1833 Y49.2350 F150.00
G01 X37.1885 Y49.2700 F150.00
G01 X37.1971 Y49.3042 F150.00
G01 X37.2090 Y49.3374 F150.00
G01 X37.2241 Y49.3693 F150.00
G01 X37.2422 Y49.3996 F150.00
G01 X37.2632 Y49.4279 F150.00
G01 X37.2911 Y49.4586 F150.00
G01 X38.5778 Y50.7453 F150.00
G01 X38.6085 Y50.7732 F150.00
G01 X38.6368 Y50.7942 F150.00
G01 X38.6671 Y50.8123 F150.00
G01 X38.6990 Y50.8274 F150.00
G01 X38.7322 Y50.8393 F150.00
G01 X38.7664 Y50.8479 F150.00
G01 X38.8014 Y50.8531 F150.00
G01 X38.8427 Y50.8551 F150.00
G01 X66.5458 Y50.8551 F150.00
G01 X66.5644 Y50.8558 F150.00
G01 X66.5829 Y50.8579 F150.00
G01 X66.5951 Y50.8600 F150.00
G01 X66.6133 Y50.8644 F150.00
G01 X66.6310 Y50.8701 F150.00
G01 X66.6426 Y50.8746 F150.00
G01 X66.6595 Y50.8825 F150.00
G01 X66.6758 Y50.8916 F150.00
G01 X66.6862 Y50.8983 F150.00
G01 X66.7012 Y50.9093 F150.00
G01 X66.7108 Y50.9173 F150.00
G01 X66.7243 Y50.9301 F150.00
G01 X67.6153 Y51.8392 F150.00
G01 X67.6235 Y51.8481 F150.00
G01 X67.6313 Y51.8573 F150.00
G01 X67.6387 Y51.8670 F150.00
G01 X67.6456 Y51.8769 F150.00
G01 X67.6520 Y51.8872 F150.00
G01 X67.6607 Y51.9032 F150.00
G01 X67.6658 Y51.9141 F150.00
G01 X67.6704 Y51.9254 F150.00
G01 X67.6744 Y51.9368 F150.00
G01 X67.6779 Y51.9484 F150.00
G01 X67.6820 Y51.9661 F150.00
G01 X67.6849 Y51.9840 F150.00
G01 X67.6860 Y51.9961 F150.00
G01 X67.6866 Y52.0082 F150.00
G01 X67.6866 Y67.5015 F150.00
G01 X67.6856 Y67.5190 F150.00
G01 X67.6834 Y67.5363 F150.00
G01 X67.6799 Y67.5535 F150.00
G01 X67.6753 Y67.5703 F150.00
G01 X67.6695 Y67.5868 F150.00
G01 X67.6626 Y67.6029 F150.00
G01 X67.6545 Y67.6184 F150.00
G01 X67.6454 Y67.6333 F150.00
G01 X67.6388 Y67.6429 F150.00
G01 X67.6317 Y67.6522 F150.00
G01 X67.6242 Y67.6611 F150.00
G01 X67.6122 Y67.6738 F150.00
G01 X67.6037 Y67.6818 F150.00
G01 X67.5948 Y67.6894 F150.00
G01 X67.5770 Y67.7029 F150.00
G01 X67.5231 Y67.7517 F150.00
G01 X67.4743 Y67.8056 F150.00
G01 X67.4311 Y67.8639 F150.00
G01 X67.3937 Y67.9262 F150.00
G01 X67.3627 Y67.9919 F150.00
G01 X67.3382 Y68.0603 F150.00
G01 X67.3205 Y68.1308 F150.00
G01 X67.3099 Y68.2026 F150.00
G01 X67.3063 Y68.2752 F150.00
G01 X67.3099 Y68.3478 F150.00
G01 X67.3205 Y68.4196 F150.00
G01 X67.3382 Y68.4901 F150.00
G01 X67.3627 Y68.5585 F150.00
G01 X67.3937 Y68.6242 F150.00
G01 X67.4311 Y68.6865 F150.00
G01 X67.4743 Y68.7448 F150.00
G01 X67.5231 Y68.7987 F150.00
G01 X67.5770 Y68.8475 F150.00
G01 X67.6353 Y68.8907 F150.00
G01 X67.6976 Y68.9281 F150.00
G01 X67.7633 Y68.9591 F150.00
G01 X67.8317 Y68.9836 F150.00
G01 X67.9022 Y69.0013 F150.00
G01 X67.9740 Y69.0119 F150.00
G01 X68.0466 Y69.0155 F150.00
G01 X68.1192 Y69.0119 F150.00
G01 X68.1910 Y69.0013 F150.00
G01 X68.2615 Y68.9836 F150.00
G01 X68.3299 Y68.9591 F150.00
G01 X68.3956 Y68.9281 F150.00
G01 X68.4579 Y68.8907 F150.00
G01 X68.5162 Y68.8475 F150.00
G01 X68.5701 Y68.7987 F150.00
G01 X68.6189 Y68.7448 F150.00
G01 X68.6621 Y68.6865 F150.00
G01 X68.6995 Y68.6242 F150.00
G01 X68.7305 Y68.5585 F150.00
G01 X68.7550 Y68.4901 F150.00
G01 X68.7727 Y68.4196 F150.00
G01 X68.7833 Y68.3478 F150.00
G01 X68.7869 Y68.2752 F150.00
G01 X68.7833 Y68.2026 F150.00
G01 X68.7727 Y68.1308 F150.00
G01 X68.7550 Y68.0603 F150.00
G01 X68.7305 Y67.9919 F150.00
G01 X68.6995 Y67.9262 F150.00
G01 X68.6621 Y67.8639 F150.00
G01 X68.6189 Y67.8056 F150.00
G01 X68.5701 Y67.7517 F150.00
G01 X68.5162 Y67.7029 F150.00
G01 X68.4984 Y67.6894 F150.00
G01 X68.4895 Y67.6818 F150.00
G01 X68.4810 Y67.6738 F150.00
G01 X68.4729 Y67.6654 F150.00
G01 X68.4652 Y67.6567 F150.00
G01 X68.4579 Y67.6476 F150.00
G01 X68.4511 Y67.6382 F150.00
G01 X68.4416 Y67.6235 F150.00
G01 X68.4359 Y67.6133 F150.00
G01 X68.4306 Y67.6029 F150.00
G01 X68.4237 Y67.5868 F150.00
G01 X68.4179 Y67.5703 F150.00
G01 X68.4133 Y67.5535 F150.00
G01 X68.4098 Y67.5363 F150.00
G01 X68.4076 Y67.5190 F150.00
G01 X68.4066 Y67.5015 F150.00
G01 X68.4065 Y51.7713 F150.00
G01 X68.4047 Y51.7318 F150.00
G01 X68.3997 Y51.6968 F150.00
G01 X68.3913 Y51.6625 F150.00
G01 X68.3796 Y51.6292 F150.00
G01 X68.3647 Y51.5972 F150.00
G01 X68.3467 Y51.5669 F150.00
G01 X68.3258 Y51.5384 F150.00
G01 X68.2994 Y51.5089 F150.00
G01 X67.0627 Y50.2470 F150.00
G01 X67.0316 Y50.2183 F150.00
G01 X67.0033 Y50.1971 F150.00
G01 X66.9732 Y50.1788 F150.00
G01 X66.9413 Y50.1636 F150.00
G01 X66.9082 Y50.1515 F150.00
G01 X66.8740 Y50.1428 F150.00
G01 X66.8391 Y50.1374 F150.00
G01 X66.7967 Y50.1353 F150.00
G01 X39.0892 Y50.1353 F150.00
G01 X39.0770 Y50.1350 F150.00
G01 X39.0586 Y50.1334 F150.00
G01 X39.0465 Y50.1316 F150.00
G01 X39.0345 Y50.1292 F150.00
G01 X39.0226 Y50.1262 F150.00
G01 X39.0108 Y50.1227 F150.00
G01 X38.9936 Y50.1163 F150.00
G01 X38.9768 Y50.1086 F150.00
G01 X38.9660 Y50.1028 F150.00
G01 X38.9555 Y50.0965 F150.00
G01 X38.9453 Y50.0897 F150.00
G01 X38.9354 Y50.0824 F150.00
G01 X38.9213 Y50.0705 F150.00
G01 X38.9125 Y50.0621 F150.00
G01 X37.9743 Y49.1239 F150.00
G01 X37.9618 Y49.1105 F150.00
G01 X37.9540 Y49.1010 F150.00
G01 X37.9467 Y49.0911 F150.00
G01 X37.9399 Y49.0809 F150.00
G01 X37.9306 Y49.0650 F150.00
G01 X37.9226 Y49.0485 F150.00
G01 X37.9157 Y49.0314 F150.00
G01 X37.9102 Y49.0138 F150.00
G01 X37.9059 Y48.9959 F150.00
G01 X37.9030 Y48.9778 F150.00
G01 X37.9018 Y48.9656 F150.00
G01 X37.9011 Y48.9472 F150.00
G01 X37.9011 Y33.9659 F150.00
G01 X37.9006 Y33.9478 F150.00
G01 X37.8991 Y33.9244 F150.00
G01 X37.8977 Y33.9126 F150.00
G01 X37.8939 Y33.8895 F150.00
G01 X37.8914 Y33.8779 F150.00
G01 X37.8853 Y33.8552 F150.00
G01 X37.8816 Y33.8440 F150.00
G01 X37.8734 Y33.8220 F150.00
G01 X37.8686 Y33.8112 F150.00
G01 X37.8583 Y33.7901 F150.00
G01 X37.8525 Y33.7798 F150.00
G01 X37.8401 Y33.7599 F150.00
G01 X37.8299 Y33.7448 F150.00
G01 X31.5984 Y25.0705 F150.00
G01 X31.5911 Y25.0598 F150.00
G01 X31.5843 Y25.0486 F150.00
G01 X31.5753 Y25.0313 F150.00
G01 X31.5677 Y25.0134 F150.00
G01 X31.5615 Y24.9949 F150.00
G01 X31.5567 Y24.9759 F150.00
G01 X31.5535 Y24.9567 F150.00
G01 X31.5521 Y24.9438 F150.00
G01 X31.5514 Y24.9243 F150.00
G01 X31.5759 Y9.3848 F150.00
G01 X31.5762 Y9.3726 F150.00
G01 X31.5771 Y9.3603 F150.00
G01 X31.5796 Y9.3421 F150.00
G01 X31.5835 Y9.3241 F150.00
G01 X31.5886 Y9.3065 F150.00
G01 X31.5927 Y9.2949 F150.00
G01 X31.5974 Y9.2836 F150.00
G01 X31.6055 Y9.2671 F150.00
G01 X31.6148 Y9.2512 F150.00
G01 X31.6216 Y9.2410 F150.00
G01 X31.6289 Y9.2312 F150.00
G01 X31.6408 Y9.2172 F150.00
G01 X31.6492 Y9.2083 F150.00
G01 X31.6581 Y9.1998 F150.00
G01 X31.6722 Y9.1880 F150.00
G01 X31.6821 Y9.1807 F150.00
G01 X31.6923 Y9.1739 F150.00
G01 X31.7028 Y9.1676 F150.00
G01 X31.7136 Y9.1618 F150.00
G01 X31.7303 Y9.1542 F150.00
G01 X31.7475 Y9.1478 F150.00
G01 X31.7666 Y9.1423 F150.00
G01 X31.7666 Y8.0352 F150.00
G01 X30.6666 Y8.0352 F150.00
G01 X30.6666 Y9.1426 F150.00
G01 X31.0016 Y8.9542 F150.00
G01 X31.0229 Y8.9748 F150.00
G01 X31.0426 Y8.9958 F150.00
G01 X31.0612 Y9.0177 F150.00
G01 X31.0787 Y9.0405 F150.00
G01 X31.0951 Y9.0641 F150.00
G01 X31.1102 Y9.0885 F150.00
G01 X31.1242 Y9.1136 F150.00
G01 X31.1369 Y9.1394 F150.00
G01 X31.1484 Y9.1658 F150.00
G01 X31.1585 Y9.1927 F150.00
G01 X31.1673 Y9.2200 F150.00
G01 X31.1747 Y9.2478 F150.00
G01 X31.1808 Y9.2759 F150.00
G01 X31.1854 Y9.3043 F150.00
G01 X31.1873 Y9.3185 F150.00
G01 X31.1892 Y9.3389 F150.00
G01 X31.1908 Y9.3676 F150.00
G01 X31.1911 Y9.3861 F150.00
G01 X31.1663 Y25.1066 F150.00
G01 X31.1667 Y25.1175 F150.00
G01 X31.1675 Y25.1257 F150.00
G01 X31.1700 Y25.1324 F150.00
G01 X31.1791 Y25.1464 F150.00
G01 X37.4064 Y33.8148 F150.00
G01 X37.4258 Y33.8436 F150.00
G01 X37.4414 Y33.8697 F150.00
G01 X37.4516 Y33.8888 F150.00
G01 X37.4584 Y33.9024 F150.00
G01 X37.4708 Y33.9301 F150.00
G01 X37.4818 Y33.9584 F150.00
G01 X37.4881 Y33.9769 F150.00
G01 X37.4938 Y33.9956 F150.00
G01 X37.4994 Y34.0165 F150.00
G01 X37.5028 Y34.0313 F150.00
G01 X37.5085 Y34.0611 F150.00
G01 X37.5119 Y34.0848 F150.00
G01 X37.5142 Y34.1063 F150.00
G01 X37.5157 Y34.1302 F150.00
G01 X37.5163 Y34.1562 F150.00
G01 X37.5163 Y49.1854 F150.00
G01 X37.5175 Y49.2045 F150.00
G01 X37.5188 Y49.2091 F150.00
G01 X37.5211 Y49.2132 F150.00
G01 X37.5337 Y49.2276 F150.00
G01 X38.8088 Y50.5027 F150.00
G01 X38.8212 Y50.5139 F150.00
G01 X38.8273 Y50.5176 F150.00
G01 X38.8342 Y50.5193 F150.00
G01 X38.8510 Y50.5201 F150.00
G01 X66.5458 Y50.5201 F150.00
G01 X66.5645 Y50.5204 F150.00
G01 X66.5852 Y50.5214 F150.00
G01 X66.6038 Y50.5230 F150.00
G01 X66.6286 Y50.5260 F150.00
G01 X66.6511 Y50.5297 F150.00
G01 X66.6654 Y50.5325 F150.00
G01 X66.6856 Y50.5371 F150.00
G01 X66.7077 Y50.5430 F150.00
G01 X66.7276 Y50.5491 F150.00
G01 X66.7492 Y50.5566 F150.00
G01 X66.7685 Y50.5642 F150.00
G01 X66.7819 Y50.5699 F150.00
G01 X66.8026 Y50.5795 F150.00
G01 X66.8211 Y50.5890 F150.00
G01 X66.8338 Y50.5960 F150.00
G01 X66.8535 Y50.6076 F150.00
G01 X66.8779 Y50.6235 F150.00
G01 X66.8947 Y50.6356 F150.00
G01 X66.9063 Y50.6444 F150.00
G01 X66.9209 Y50.6562 F150.00
G01 X66.9350 Y50.6684 F150.00
G01 X66.9457 Y50.6782 F150.00
G01 X66.9606 Y50.6927 F150.00
G01 X67.8545 Y51.6048 F150.00
G01 X67.8671 Y51.6180 F150.00
G01 X67.8805 Y51.6331 F150.00
G01 X67.8984 Y51.6551 F150.00
G01 X67.9118 Y51.6729 F150.00
G01 X67.9233 Y51.6895 F150.00
G01 X67.9353 Y51.7083 F150.00
G01 X67.9456 Y51.7257 F150.00
G01 X67.9562 Y51.7453 F150.00
G01 X67.9652 Y51.7634 F150.00
G01 X67.9744 Y51.7838 F150.00
G01 X67.9820 Y51.8025 F150.00
G01 X67.9897 Y51.8234 F150.00
G01 X67.9983 Y51.8504 F150.00
G01 X68.0036 Y51.8699 F150.00
G01 X68.0087 Y51.8916 F150.00
G01 X68.0126 Y51.9115 F150.00
G01 X68.0161 Y51.9335 F150.00
G01 X68.0193 Y51.9617 F150.00
G01 X68.0212 Y51.9899 F150.00
G01 X68.0217 Y52.0142 F150.00
G01 X68.0216 Y67.5055 F150.00
G01 X68.0205 Y67.5327 F150.00
G01 X68.0188 Y67.5541 F150.00
G01 X68.0172 Y67.5676 F150.00
G01 X68.0123 Y67.6004 F150.00
G01 X68.0080 Y67.6214 F150.00
G01 X68.0049 Y67.6347 F150.00
G01 X67.9962 Y67.6666 F150.00
G01 X67.9876 Y67.6925 F150.00
G01 X67.9800 Y67.7126 F150.00
G01 X67.9748 Y67.7252 F150.00
G01 X67.9610 Y67.7552 F150.00
G01 X67.9511 Y67.7743 F150.00
G01 X67.9445 Y67.7862 F150.00
G01 X67.9272 Y67.8145 F150.00
G01 X67.9197 Y67.8258 F150.00
G01 X67.9072 Y67.8433 F150.00
G01 X67.8954 Y67.8588 F150.00
G01 X67.8818 Y67.8753 F150.00
G01 X67.8596 Y67.8999 F150.00
G01 X67.8445 Y67.9151 F150.00
G01 X67.8346 Y67.9245 F150.00
G01 X67.8142 Y67.9426 F150.00
G01 X67.7901 Y67.9619 F150.00
G01 X67.7603 Y67.9889 F150.00
G01 X67.7336 Y68.0183 F150.00
G01 X67.7099 Y68.0503 F150.00
G01 X67.6895 Y68.0843 F150.00
G01 X67.6725 Y68.1203 F150.00
G01 X67.6591 Y68.1577 F150.00
G01 X67.6495 Y68.1962 F150.00
G01 X67.6437 Y68.2355 F150.00
G01 X67.6417 Y68.2752 F150.00
G01 X67.6437 Y68.3149 F150.00
G01 X67.6495 Y68.3542 F150.00
G01 X67.6591 Y68.3927 F150.00
G01 X67.6725 Y68.4301 F150.00
G01 X67.6895 Y68.4661 F150.00
G01 X67.7099 Y68.5001 F150.00
G01 X67.7336 Y68.5321 F150.00
G01 X67.7603 Y68.5615 F150.00
G01 X67.7897 Y68.5882 F150.00
G01 X67.8217 Y68.6119 F150.00
G01 X67.8557 Y68.6323 F150.00
G01 X67.8917 Y68.6493 F150.00
G01 X67.9291 Y68.6627 F150.00
G01 X67.9676 Y68.6723 F150.00
G01 X68.0069 Y68.6781 F150.00
G01 X68.0466 Y68.6801 F150.00
G01 X68.0863 Y68.6781 F150.00
G01 X68.1256 Y68.6723 F150.00
G01 X68.1641 Y68.6627 F150.00
G01 X68.2015 Y68.6493 F150.00
G01 X68.2375 Y68.6323 F150.00
G01 X68.2715 Y68.6119 F150.00
G01 X68.3035 Y68.5882 F150.00
G01 X68.3329 Y68.5615 F150.00
G01 X68.3596 Y68.5321 F150.00
G01 X68.3833 Y68.5001 F150.00
G01 X68.4037 Y68.4661 F150.00
G01 X68.4207 Y68.4301 F150.00
G01 X68.4341 Y68.3927 F150.00
G01 X68.4437 Y68.3542 F150.00
G01 X68.4495 Y68.3149 F150.00
G01 X68.4515 Y68.2752 F150.00
G01 X68.4495 Y68.2355 F150.00
G01 X68.4437 Y68.1962 F150.00
G01 X68.4341 Y68.1577 F150.00
G01 X68.4207 Y68.1203 F150.00
G01 X68.4037 Y68.0843 F150.00
G01 X68.3833 Y68.0503 F150.00
G01 X68.3596 Y68.0183 F150.00
G01 X68.3329 Y67.9889 F150.00
G01 X68.3031 Y67.9619 F150.00
G01 X68.2835 Y67.9464 F150.00
G01 X68.2629 Y67.9285 F150.00
G01 X68.2431 Y67.9097 F150.00
G01 X68.2204 Y67.8856 F150.00
G01 X68.2114 Y67.8753 F150.00
G01 X68.1978 Y67.8588 F150.00
G01 X68.1780 Y67.8322 F150.00
G01 X68.1703 Y67.8210 F150.00
G01 X68.1587 Y67.8029 F150.00
G01 X68.1449 Y67.7794 F150.00
G01 X68.1357 Y67.7622 F150.00
G01 X68.1263 Y67.7429 F150.00
G01 X68.1132 Y67.7126 F150.00
G01 X68.1056 Y67.6925 F150.00
G01 X68.1012 Y67.6796 F150.00
G01 X68.0917 Y67.6479 F150.00
G01 X68.0883 Y67.6347 F150.00
G01 X68.0835 Y67.6138 F150.00
G01 X68.0778 Y67.5812 F150.00
G01 X68.0760 Y67.5676 F150.00
G01 X68.0737 Y67.5463 F150.00
G01 X68.0723 Y67.5269 F150.00
G01 X68.0717 Y67.5094 F150.00
G01 X68.0715 Y51.7796 F150.00
G01 X68.0707 Y51.7629 F150.00
G01 X68.0690 Y51.7560 F150.00
G01 X68.0668 Y51.7519 F150.00
G01 X68.0543 Y51.7375 F150.00
G01 X66.8280 Y50.4861 F150.00
G01 X66.8155 Y50.4751 F150.00
G01 X66.8114 Y50.4729 F150.00
G01 X66.8068 Y50.4715 F150.00
G01 X66.7913 Y50.4704 F150.00
G01 X39.0892 Y50.4703 F150.00
G01 X39.0646 Y50.4698 F150.00
G01 X39.0360 Y50.4679 F150.00
G01 X39.0135 Y50.4654 F150.00
G01 X38.9933 Y50.4624 F150.00
G01 X38.9651 Y50.4570 F150.00
G01 X38.9431 Y50.4517 F150.00
G01 X38.9155 Y50.4439 F150.00
G01 X38.8960 Y50.4375 F150.00
G01 X38.8749 Y50.4296 F150.00
G01 X38.8559 Y50.4218 F150.00
G01 X38.8354 Y50.4124 F150.00
G01 X38.8098 Y50.3993 F150.00
G01 X38.7920 Y50.3892 F150.00
G01 X38.7677 Y50.3740 F150.00
G01 X38.7490 Y50.3612 F150.00
G01 X38.7261 Y50.3439 F150.00
G01 X38.7103 Y50.3309 F150.00
G01 X38.6933 Y50.3160 F150.00
G01 X38.6756 Y50.2990 F150.00
G01 X37.7346 Y49.3579 F150.00
G01 X37.7149 Y49.3370 F150.00
G01 X37.7055 Y49.3261 F150.00
G01 X37.6925 Y49.3103 F150.00
G01 X37.6752 Y49.2874 F150.00
G01 X37.6624 Y49.2687 F150.00
G01 X37.6547 Y49.2567 F150.00
G01 X37.6442 Y49.2391 F150.00
G01 X37.6333 Y49.2193 F150.00
G01 X37.6240 Y49.2010 F150.00
G01 X37.6146 Y49.1805 F150.00
G01 X37.6068 Y49.1615 F150.00
G01 X37.6017 Y49.1481 F150.00
G01 X37.5944 Y49.1268 F150.00
G01 X37.5884 Y49.1072 F150.00
G01 X37.5847 Y49.0933 F150.00
G01 X37.5794 Y49.0713 F150.00
G01 X37.5754 Y49.0512 F150.00
G01 X37.5719 Y49.0289 F150.00
G01 X37.5693 Y49.0086 F150.00
G01 X37.5674 Y48.9861 F150.00
G01 X37.5664 Y48.9656 F150.00
G01 X37.5661 Y48.9472 F150.00
G01 X37.5661 Y33.9736 F150.00
G01 X37.5653 Y33.9570 F150.00
G01 X37.5643 Y33.9524 F150.00
G01 X37.5624 Y33.9480 F150.00
G01 X37.5534 Y33.9340 F150.00
G01 X31.3263 Y25.2660 F150.00
G01 X31.3116 Y25.2445 F150.00
G01 X31.2956 Y25.2185 F150.00
G01 X31.2840 Y25.1976 F150.00
G01 X31.2705 Y25.1703 F150.00
G01 X31.2617 Y25.1504 F150.00
G01 X31.2507 Y25.1220 F150.00
G01 X31.2431 Y25.0994 F150.00
G01 X31.2348 Y25.0701 F150.00
G01 X31.2298 Y25.0489 F150.00
G01 X31.2267 Y25.0340 F150.00
G01 X31.2227 Y25.0104 F150.00
G01 X31.2207 Y24.9953 F150.00
G01 X31.2191 Y24.9802 F150.00
G01 X31.2174 Y24.9585 F150.00
G01 X31.2164 Y24.9237 F150.00
G01 X31.2409 Y9.3802 F150.00
G01 X31.2414 Y9.3597 F150.00
G01 X31.2423 Y9.3454 F150.00
G01 X31.2449 Y9.3168 F150.00
G01 X31.2490 Y9.2884 F150.00
G01 X31.2544 Y9.2603 F150.00
G01 X31.2612 Y9.2324 F150.00
G01 X31.2675 Y9.2107 F150.00
G01 X31.2720 Y9.1971 F150.00
G01 X31.2818 Y9.1702 F150.00
G01 X31.2930 Y9.1438 F150.00
G01 X31.3018 Y9.1253 F150.00
G01 X31.3083 Y9.1125 F150.00
G01 X31.3223 Y9.0875 F150.00
G01 X31.3375 Y9.0631 F150.00
G01 X31.3539 Y9.0396 F150.00
G01 X31.3714 Y9.0169 F150.00
G01 X31.3900 Y8.9950 F150.00
G01 X31.4097 Y8.9741 F150.00
G01 X31.4304 Y8.9541 F150.00
G01 X31.4312 Y8.3702 F150.00
G01 X31.0016 Y8.3702 F150.00
G01 X31.0016 Y8.9542 F150.00
G00 Z2.0000
G00 X38.4549 Y12.3463
G01 F50.00
G01 Z0.0000
G01 F150.00
G01 X38.4537 Y12.3561 F150.00
G01 X38.4513 Y12.3873 F150.00
G01 X38.1832 Y19.2370 F150.00
G01 X38.1824 Y19.2494 F150.00
G01 X38.1801 Y19.2678 F150.00
G01 X38.1764 Y19.2861 F150.00
G01 X38.1713 Y19.3040 F150.00
G01 X38.1672 Y19.3157 F150.00
G01 X38.1600 Y19.3328 F150.00
G01 X38.1515 Y19.3494 F150.00
G01 X38.1452 Y19.3601 F150.00
G01 X38.1347 Y19.3755 F150.00
G01 X38.1271 Y19.3853 F150.00
G01 X38.1190 Y19.3947 F150.00
G01 X38.1105 Y19.4037 F150.00
G01 X38.1015 Y19.4123 F150.00
G01 X38.0872 Y19.4242 F150.00
G01 X38.0622 Y19.4429 F150.00
G01 X38.0083 Y19.4917 F150.00
G01 X37.9595 Y19.5456 F150.00
G01 X37.9163 Y19.6039 F150.00
G01 X37.8789 Y19.6662 F150.00
G01 X37.8479 Y19.7319 F150.00
G01 X37.8234 Y19.8003 F150.00
G01 X37.8057 Y19.8708 F150.00
G01 X37.7951 Y19.9426 F150.00
G01 X37.7915 Y20.0152 F150.00
G01 X37.7951 Y20.0878 F150.00
G01 X37.8057 Y20.1596 F150.00
G01 X37.8234 Y20.2301 F150.00
G01 X37.8479 Y20.2985 F150.00
G01 X37.8789 Y20.3642 F150.00
G01 X37.9163 Y20.4265 F150.00
G01 X37.9595 Y20.4848 F150.00
G01 X38.0083 Y20.5387 F150.00
G01 X38.0622 Y20.5875 F150.00
G01 X38.1205 Y20.6307 F150.00
G01 X38.1828 Y20.6681 F150.00
G01 X38.2485 Y20.6991 F150.00
G01 X38.3169 Y20.7236 F150.00
G01 X38.3874 Y20.7413 F150.00
G01 X38.4592 Y20.7519 F150.00
G01 X38.5318 Y20.7555 F150.00
G01 X38.6044 Y20.7519 F150.00
G01 X38.6762 Y20.7413 F150.00
G01 X38.7467 Y20.7236 F150.00
G01 X38.8151 Y20.6991 F150.00
G01 X38.8808 Y20.6681 F150.00
G01 X38.9431 Y20.6307 F150.00
G01 X39.0014 Y20.5875 F150.00
G01 X39.0553 Y20.5387 F150.00
G01 X39.1041 Y20.4848 F150.00
G01 X39.1473 Y20.4265 F150.00
G01 X39.1847 Y20.3642 F150.00
G01 X39.2157 Y20.2985 F150.00
G01 X39.2402 Y20.2301 F150.00
G01 X39.2579 Y20.1596 F150.00
G01 X39.2685 Y20.0878 F150.00
G01 X39.2721 Y20.0152 F150.00
G01 X39.2685 Y19.9426 F150.00
G01 X39.2579 Y19.8708 F150.00
G01 X39.2402 Y19.8003 F150.00
G01 X39.2157 Y19.7319 F150.00
G01 X39.1847 Y19.6662 F150.00
G01 X39.1473 Y19.6039 F150.00
G01 X39.1041 Y19.5456 F150.00
G01 X39.0553 Y19.4917 F150.00
G01 X39.0010 Y19.4426 F150.00
G01 X38.9857 Y19.4298 F150.00
G01 X38.9727 Y19.4171 F150.00
G01 X38.9645 Y19.4081 F150.00
G01 X38.9568 Y19.3988 F150.00
G01 X38.9495 Y19.3890 F150.00
G01 X38.9427 Y19.3790 F150.00
G01 X38.9335 Y19.3633 F150.00
G01 X38.9254 Y19.3469 F150.00
G01 X38.9186 Y19.3301 F150.00
G01 X38.9147 Y19.3185 F150.00
G01 X38.9099 Y19.3010 F150.00
G01 X38.9065 Y19.2831 F150.00
G01 X38.9043 Y19.2650 F150.00
G01 X38.9035 Y19.2468 F150.00
G01 X38.9036 Y19.2347 F150.00
G01 X39.1614 Y12.6513 F150.00
G01 X39.1627 Y12.6337 F150.00
G01 X39.1652 Y12.6161 F150.00
G01 X39.1676 Y12.6046 F150.00
G01 X39.1706 Y12.5931 F150.00
G01 X39.1760 Y12.5763 F150.00
G01 X39.1826 Y12.5598 F150.00
G01 X39.1904 Y12.5439 F150.00
G01 X39.1992 Y12.5285 F150.00
G01 X39.2057 Y12.5187 F150.00
G01 X39.2127 Y12.5091 F150.00
G01 X39.2239 Y12.4954 F150.00
G01 X39.2361 Y12.4826 F150.00
G01 X40.1851 Y11.5524 F150.00
G01 X40.1941 Y11.5443 F150.00
G01 X40.2084 Y11.5331 F150.00
G01 X40.2235 Y11.5229 F150.00
G01 X40.2339 Y11.5168 F150.00
G01 X40.2446 Y11.5111 F150.00
G01 X40.2612 Y11.5037 F150.00
G01 X40.2725 Y11.4994 F150.00
G01 X40.2898 Y11.4939 F150.00
G01 X40.3075 Y11.4898 F150.00
G01 X40.3255 Y11.4869 F150.00
G01 X40.3375 Y11.4858 F150.00
G01 X40.3557 Y11.4851 F150.00
G01 X71.0771 Y11.4851 F150.00
G01 X71.0965 Y11.4859 F150.00
G01 X71.1094 Y11.4872 F150.00
G01 X71.1286 Y11.4905 F150.00
G01 X71.1474 Y11.4952 F150.00
G01 X71.1658 Y11.5014 F150.00
G01 X71.1837 Y11.5090 F150.00
G01 X71.2009 Y11.5179 F150.00
G01 X71.2174 Y11.5282 F150.00
G01 X71.2331 Y11.5397 F150.00
G01 X71.2430 Y11.5480 F150.00
G01 X71.2524 Y11.5569 F150.00
G01 X71.2614 Y11.5662 F150.00
G01 X71.2699 Y11.5760 F150.00
G01 X71.2843 Y11.5948 F150.00
G01 X71.3331 Y11.6487 F150.00
G01 X71.3870 Y11.6975 F150.00
G01 X71.4453 Y11.7407 F150.00
G01 X71.5076 Y11.7781 F150.00
G01 X71.5733 Y11.8091 F150.00
G01 X71.6417 Y11.8336 F150.00
G01 X71.7122 Y11.8513 F150.00
G01 X71.7840 Y11.8619 F150.00
G01 X71.8566 Y11.8655 F150.00
G01 X71.9292 Y11.8619 F150.00
G01 X72.0010 Y11.8513 F150.00
G01 X72.0715 Y11.8336 F150.00
G01 X72.1399 Y11.8091 F150.00
G01 X72.2056 Y11.7781 F150.00
G01 X72.2679 Y11.7407 F150.00
G01 X72.3262 Y11.6975 F150.00
G01 X72.3801 Y11.6487 F150.00
G01 X72.4289 Y11.5948 F150.00
G01 X72.4721 Y11.5365 F150.00
G01 X72.5095 Y11.4742 F150.00
G01 X72.5405 Y11.4085 F150.00
G01 X72.5650 Y11.3401 F150.00
G01 X72.5827 Y11.2696 F150.00
G01 X72.5933 Y11.1978 F150.00
G01 X72.5969 Y11.1252 F150.00
G01 X72.5933 Y11.0526 F150.00
G01 X72.5827 Y10.9808 F150.00
G01 X72.5650 Y10.9103 F150.00
G01 X72.5405 Y10.8419 F150.00
G01 X72.5095 Y10.7762 F150.00
G01 X72.4721 Y10.7139 F150.00
G01 X72.4289 Y10.6556 F150.00
G01 X72.3801 Y10.6017 F150.00
G01 X72.3262 Y10.5529 F150.00
G01 X72.2679 Y10.5097 F150.00
G01 X72.2056 Y10.4723 F150.00
G01 X72.1399 Y10.4413 F150.00
G01 X72.0715 Y10.4168 F150.00
G01 X72.0010 Y10.3991 F150.00
G01 X71.9292 Y10.3885 F150.00
G01 X71.8566 Y10.3849 F150.00
G01 X71.7840 Y10.3885 F150.00
G01 X71.7122 Y10.3991 F150.00
G01 X71.6417 Y10.4168 F150.00
G01 X71.5733 Y10.4413 F150.00
G01 X71.5076 Y10.4723 F150.00
G01 X71.4453 Y10.5097 F150.00
G01 X71.3870 Y10.5529 F150.00
G01 X71.3331 Y10.6017 F150.00
G01 X71.2843 Y10.6556 F150.00
G01 X71.2699 Y10.6744 F150.00
G01 X71.2614 Y10.6842 F150.00
G01 X71.2524 Y10.6935 F150.00
G01 X71.2430 Y10.7024 F150.00
G01 X71.2331 Y10.7107 F150.00
G01 X71.2174 Y10.7222 F150.00
G01 X71.2009 Y10.7325 F150.00
G01 X71.1837 Y10.7414 F150.00
G01 X71.1658 Y10.7490 F150.00
G01 X71.1474 Y10.7552 F150.00
G01 X71.1286 Y10.7599 F150.00
G01 X71.1094 Y10.7632 F150.00
G01 X71.0965 Y10.7645 F150.00
G01 X71.0771 Y10.7653 F150.00
G01 X40.1127 Y10.7653 F150.00
G01 X40.0731 Y10.7671 F150.00
G01 X40.0382 Y10.7721 F150.00
G01 X40.0039 Y10.7805 F150.00
G01 X39.9706 Y10.7922 F150.00
G01 X39.9386 Y10.8071 F150.00
G01 X39.9082 Y10.8251 F150.00
G01 X39.8798 Y10.8460 F150.00
G01 X39.8503 Y10.8725 F150.00
G01 X38.5636 Y12.1339 F150.00
G01 X38.5421 Y12.1566 F150.00
G01 X38.5357 Y12.1641 F150.00
G01 X38.5200 Y12.1841 F150.00
G01 X38.5144 Y12.1922 F150.00
G01 X38.5008 Y12.2137 F150.00
G01 X38.4959 Y12.2223 F150.00
G01 X38.4845 Y12.2450 F150.00
G01 X38.4805 Y12.2540 F150.00
G01 X38.4713 Y12.2777 F150.00
G01 X38.4682 Y12.2871 F150.00
G01 X38.4614 Y12.3116 F150.00
G01 X38.4593 Y12.3212 F150.00
G01 X38.4549 Y12.3463 F150.00
G01 X38.7928 Y12.3794 F150.00
G01 X38.7890 Y12.3854 F150.00
G01 X38.7875 Y12.3899 F150.00
G01 X38.7858 Y12.4086 F150.00
G01 X38.5179 Y19.2501 F150.00
G01 X38.5157 Y19.2832 F150.00
G01 X38.5122 Y19.3120 F150.00
G01 X38.5099 Y19.3264 F150.00
G01 X38.5060 Y19.3467 F150.00
G01 X38.4994 Y19.3750 F150.00
G01 X38.4914 Y19.4029 F150.00
G01 X38.4820 Y19.4304 F150.00
G01 X38.4712 Y19.4573 F150.00
G01 X38.4636 Y19.4744 F150.00
G01 X38.4554 Y19.4912 F150.00
G01 X38.4457 Y19.5095 F150.00
G01 X38.4365 Y19.5257 F150.00
G01 X38.4187 Y19.5538 F150.00
G01 X38.4105 Y19.5657 F150.00
G01 X38.3982 Y19.5824 F150.00
G01 X38.3840 Y19.6003 F150.00
G01 X38.3746 Y19.6113 F150.00
G01 X38.3649 Y19.6222 F150.00
G01 X38.3506 Y19.6372 F150.00
G01 X38.3267 Y19.6602 F150.00
G01 X38.3015 Y19.6818 F150.00
G01 X38.2749 Y19.7022 F150.00
G01 X38.2455 Y19.7289 F150.00
G01 X38.2188 Y19.7583 F150.00
G01 X38.1951 Y19.7903 F150.00
G01 X38.1747 Y19.8243 F150.00
G01 X38.1577 Y19.8603 F150.00
G01 X38.1443 Y19.8977 F150.00
G01 X38.1347 Y19.9362 F150.00
G01 X38.1289 Y19.9755 F150.00
G01 X38.1269 Y20.0152 F150.00
G01 X38.1289 Y20.0549 F150.00
G01 X38.1347 Y20.0942 F150.00
G01 X38.1443 Y20.1327 F150.00
G01 X38.1577 Y20.1701 F150.00
G01 X38.1747 Y20.2061 F150.00
G01 X38.1951 Y20.2401 F150.00
G01 X38.2188 Y20.2721 F150.00
G01 X38.2455 Y20.3015 F150.00
G01 X38.2749 Y20.3282 F150.00
G01 X38.3069 Y20.3519 F150.00
G01 X38.3409 Y20.3723 F150.00
G01 X38.3769 Y20.3893 F150.00
G01 X38.4143 Y20.4027 F150.00
G01 X38.4528 Y20.4123 F150.00
G01 X38.4921 Y20.4181 F150.00
G01 X38.5318 Y20.4201 F150.00
G01 X38.5715 Y20.4181 F150.00
G01 X38.6108 Y20.4123 F150.00
G01 X38.6493 Y20.4027 F150.00
G01 X38.6867 Y20.3893 F150.00
G01 X38.7227 Y20.3723 F150.00
G01 X38.7567 Y20.3519 F150.00
G01 X38.7887 Y20.3282 F150.00
G01 X38.8181 Y20.3015 F150.00
G01 X38.8448 Y20.2721 F150.00
G01 X38.8685 Y20.2401 F150.00
G01 X38.8889 Y20.2061 F150.00
G01 X38.9059 Y20.1701 F150.00
G01 X38.9193 Y20.1327 F150.00
G01 X38.9289 Y20.0942 F150.00
G01 X38.9347 Y20.0549 F150.00
G01 X38.9367 Y20.0152 F150.00
G01 X38.9347 Y19.9755 F150.00
G01 X38.9289 Y19.9362 F150.00
G01 X38.9193 Y19.8977 F150.00
G01 X38.9059 Y19.8603 F150.00
G01 X38.8889 Y19.8243 F150.00
G01 X38.8685 Y19.7903 F150.00
G01 X38.8448 Y19.7583 F150.00
G01 X38.8181 Y19.7289 F150.00
G01 X38.7839 Y19.6979 F150.00
G01 X38.7641 Y19.6810 F150.00
G01 X38.7477 Y19.6658 F150.00
G01 X38.7235 Y19.6411 F150.00
G01 X38.7048 Y19.6198 F150.00
G01 X38.6958 Y19.6088 F150.00
G01 X38.6822 Y19.5910 F150.00
G01 X38.6626 Y19.5627 F150.00
G01 X38.6508 Y19.5437 F150.00
G01 X38.6437 Y19.5314 F150.00
G01 X38.6276 Y19.5008 F150.00
G01 X38.6158 Y19.4750 F150.00
G01 X38.6104 Y19.4619 F150.00
G01 X38.6025 Y19.4410 F150.00
G01 X38.5936 Y19.4140 F150.00
G01 X38.5845 Y19.3807 F150.00
G01 X38.5786 Y19.3529 F150.00
G01 X38.5749 Y19.3309 F150.00
G01 X38.5730 Y19.3168 F150.00
G01 X38.5697 Y19.2824 F150.00
G01 X38.5685 Y19.2540 F150.00
G01 X38.5689 Y19.2215 F150.00
G01 X38.8266 Y12.6382 F150.00
G01 X38.8276 Y12.6205 F150.00
G01 X38.8293 Y12.6008 F150.00
G01 X38.8319 Y12.5793 F150.00
G01 X38.8350 Y12.5598 F150.00
G01 X38.8392 Y12.5384 F150.00
G01 X38.8456 Y12.5115 F150.00
G01 X38.8510 Y12.4926 F150.00
G01 X38.8576 Y12.4719 F150.00
G01 X38.8643 Y12.4533 F150.00
G01 X38.8724 Y12.4331 F150.00
G01 X38.8804 Y12.4151 F150.00
G01 X38.8899 Y12.3955 F150.00
G01 X38.8992 Y12.3781 F150.00
G01 X38.9101 Y12.3593 F150.00
G01 X38.9249 Y12.3360 F150.00
G01 X38.9361 Y12.3197 F150.00
G01 X38.9491 Y12.3023 F150.00
G01 X38.9666 Y12.2809 F150.00
G01 X38.9797 Y12.2661 F150.00
G01 X38.9946 Y12.2504 F150.00
G01 X39.9462 Y11.3174 F150.00
G01 X39.9639 Y11.3007 F150.00
G01 X39.9745 Y11.2914 F150.00
G01 X39.9917 Y11.2772 F150.00
G01 X40.0143 Y11.2601 F150.00
G01 X40.0428 Y11.2408 F150.00
G01 X40.0549 Y11.2334 F150.00
G01 X40.0742 Y11.2223 F150.00
G01 X40.1049 Y11.2066 F150.00
G01 X40.1177 Y11.2007 F150.00
G01 X40.1383 Y11.1920 F150.00
G01 X40.1648 Y11.1821 F150.00
G01 X40.1977 Y11.1719 F150.00
G01 X40.2114 Y11.1682 F150.00
G01 X40.2331 Y11.1631 F150.00
G01 X40.2529 Y11.1592 F150.00
G01 X40.2750 Y11.1557 F150.00
G01 X40.2950 Y11.1533 F150.00
G01 X40.3173 Y11.1514 F150.00
G01 X40.3375 Y11.1504 F150.00
G01 X40.3557 Y11.1501 F150.00
G01 X71.0815 Y11.1501 F150.00
G01 X71.1031 Y11.1507 F150.00
G01 X71.1182 Y11.1516 F150.00
G01 X71.1484 Y11.1545 F150.00
G01 X71.1720 Y11.1579 F150.00
G01 X71.1869 Y11.1605 F150.00
G01 X71.2165 Y11.1670 F150.00
G01 X71.2374 Y11.1725 F150.00
G01 X71.2519 Y11.1768 F150.00
G01 X71.2806 Y11.1866 F150.00
G01 X71.3087 Y11.1979 F150.00
G01 X71.3363 Y11.2106 F150.00
G01 X71.3669 Y11.2269 F150.00
G01 X71.3836 Y11.2368 F150.00
G01 X71.4018 Y11.2485 F150.00
G01 X71.4266 Y11.2660 F150.00
G01 X71.4386 Y11.2752 F150.00
G01 X71.4571 Y11.2903 F150.00
G01 X71.4796 Y11.3106 F150.00
G01 X71.4950 Y11.3257 F150.00
G01 X71.5055 Y11.3367 F150.00
G01 X71.5255 Y11.3594 F150.00
G01 X71.5433 Y11.3817 F150.00
G01 X71.5703 Y11.4115 F150.00
G01 X71.5997 Y11.4382 F150.00
G01 X71.6317 Y11.4619 F150.00
G01 X71.6657 Y11.4823 F150.00
G01 X71.7017 Y11.4993 F150.00
G01 X71.7391 Y11.5127 F150.00
G01 X71.7776 Y11.5223 F150.00
G01 X71.8169 Y11.5281 F150.00
G01 X71.8566 Y11.5301 F150.00
G01 X71.8963 Y11.5281 F150.00
G01 X71.9356 Y11.5223 F150.00
G01 X71.9741 Y11.5127 F150.00
G01 X72.0115 Y11.4993 F150.00
G01 X72.0475 Y11.4823 F150.00
G01 X72.0815 Y11.4619 F150.00
G01 X72.1135 Y11.4382 F150.00
G01 X72.1429 Y11.4115 F150.00
G01 X72.1696 Y11.3821 F150.00
G01 X72.1933 Y11.3501 F150.00
G01 X72.2137 Y11.3161 F150.00
G01 X72.2307 Y11.2801 F150.00
G01 X72.2441 Y11.2427 F150.00
G01 X72.2537 Y11.2042 F150.00
G01 X72.2595 Y11.1649 F150.00
G01 X72.2615 Y11.1252 F150.00
G01 X72.2595 Y11.0855 F150.00
G01 X72.2537 Y11.0462 F150.00
G01 X72.2441 Y11.0077 F150.00
G01 X72.2307 Y10.9703 F150.00
G01 X72.2137 Y10.9343 F150.00
G01 X72.1933 Y10.9003 F150.00
G01 X72.1696 Y10.8683 F150.00
G01 X72.1429 Y10.8389 F150.00
G01 X72.1135 Y10.8122 F150.00
G01 X72.0815 Y10.7885 F150.00
G01 X72.0475 Y10.7681 F150.00
G01 X72.0115 Y10.7511 F150.00
G01 X71.9741 Y10.7377 F150.00
G01 X71.9356 Y10.7281 F150.00
G01 X71.8963 Y10.7223 F150.00
G01 X71.8566 Y10.7203 F150.00
G01 X71.8169 Y10.7223 F150.00
G01 X71.7776 Y10.7281 F150.00
G01 X71.7391 Y10.7377 F150.00
G01 X71.7017 Y10.7511 F150.00
G01 X71.6657 Y10.7681 F150.00
G01 X71.6317 Y10.7885 F150.00
G01 X71.5997 Y10.8122 F150.00
G01 X71.5703 Y10.8389 F150.00
G01 X71.5433 Y10.8687 F150.00
G01 X71.5255 Y10.8910 F150.00
G01 X71.5055 Y10.9137 F150.00
G01 X71.4950 Y10.9247 F150.00
G01 X71.4796 Y10.9398 F150.00
G01 X71.4571 Y10.9601 F150.00
G01 X71.4386 Y10.9752 F150.00
G01 X71.4266 Y10.9844 F150.00
G01 X71.4018 Y11.0019 F150.00
G01 X71.3836 Y11.0136 F150.00
G01 X71.3669 Y11.0235 F150.00
G01 X71.3363 Y11.0398 F150.00
G01 X71.3087 Y11.0525 F150.00
G01 X71.2806 Y11.0638 F150.00
G01 X71.2519 Y11.0736 F150.00
G01 X71.2374 Y11.0779 F150.00
G01 X71.2165 Y11.0834 F150.00
G01 X71.1869 Y11.0899 F150.00
G01 X71.1634 Y11.0939 F150.00
G01 X71.1484 Y11.0959 F150.00
G01 X71.1182 Y11.0988 F150.00
G01 X71.0966 Y11.1000 F150.00
G01 X71.0815 Y11.1003 F150.00
G01 X40.1210 Y11.1003 F150.00
G01 X40.1043 Y11.1011 F150.00
G01 X40.0974 Y11.1028 F150.00
G01 X40.0913 Y11.1064 F150.00
G01 X40.0789 Y11.1175 F150.00
G01 X38.8040 Y12.3674 F150.00
G01 X38.7928 Y12.3794 F150.00
G00 Z2.0000
G00 X41.0174 Y14.9395
G01 F50.00
G01 Z0.0000
G01 F150.00
G01 X40.7559 Y19.2180 F150.00
G01 X40.7541 Y19.2361 F150.00
G01 X40.7510 Y19.2540 F150.00
G01 X40.7467 Y19.2716 F150.00
G01 X40.7410 Y19.2889 F150.00
G01 X40.7366 Y19.3001 F150.00
G01 X40.7289 Y19.3166 F150.00
G01 X40.7201 Y19.3324 F150.00
G01 X40.7135 Y19.3426 F150.00
G01 X40.7028 Y19.3573 F150.00
G01 X40.6951 Y19.3666 F150.00
G01 X40.6870 Y19.3756 F150.00
G01 X40.6784 Y19.3841 F150.00
G01 X40.6694 Y19.3922 F150.00
G01 X40.6552 Y19.4036 F150.00
G01 X40.6022 Y19.4429 F150.00
G01 X40.5483 Y19.4917 F150.00
G01 X40.4995 Y19.5456 F150.00
G01 X40.4563 Y19.6039 F150.00
G01 X40.4189 Y19.6662 F150.00
G01 X40.3879 Y19.7319 F150.00
G01 X40.3634 Y19.8003 F150.00
G01 X40.3457 Y19.8708 F150.00
G01 X40.3351 Y19.9426 F150.00
G01 X40.3315 Y20.0152 F150.00
G01 X40.3351 Y20.0878 F150.00
G01 X40.3457 Y20.1596 F150.00
G01 X40.3634 Y20.2301 F150.00
G01 X40.3879 Y20.2985 F150.00
G01 X40.4189 Y20.3642 F150.00
G01 X40.4563 Y20.4265 F150.00
G01 X40.4995 Y20.4848 F150.00
G01 X40.5483 Y20.5387 F150.00
G01 X40.6022 Y20.5875 F150.00
G01 X40.6605 Y20.6307 F150.00
G01 X40.7228 Y20.6681 F150.00
G01 X40.7885 Y20.6991 F150.00
G01 X40.8569 Y20.7236 F150.00
G01 X40.9274 Y20.7413 F150.00
G01 X40.9992 Y20.7519 F150.00
G01 X41.0718 Y20.7555 F150.00
G01 X41.1444 Y20.7519 F150.00
G01 X41.2162 Y20.7413 F150.00
G01 X41.2867 Y20.7236 F150.00
G01 X41.3551 Y20.6991 F150.00
G01 X41.4208 Y20.6681 F150.00
G01 X41.4831 Y20.6307 F150.00
G01 X41.5414 Y20.5875 F150.00
G01 X41.5953 Y20.5387 F150.00
G01 X41.6441 Y20.4848 F150.00
G01 X41.6873 Y20.4265 F150.00
G01 X41.7247 Y20.3642 F150.00
G01 X41.7557 Y20.2985 F150.00
G01 X41.7802 Y20.2301 F150.00
G01 X41.7979 Y20.1596 F150.00
G01 X41.8085 Y20.0878 F150.00
G01 X41.8121 Y20.0152 F150.00
G01 X41.8085 Y19.9426 F150.00
G01 X41.7979 Y19.8708 F150.00
G01 X41.7802 Y19.8003 F150.00
G01 X41.7557 Y19.7319 F150.00
G01 X41.7247 Y19.6662 F150.00
G01 X41.6873 Y19.6039 F150.00
G01 X41.6441 Y19.5456 F150.00
G01 X41.5953 Y19.4917 F150.00
G01 X41.5563 Y19.4564 F150.00
G01 X41.5430 Y19.4434 F150.00
G01 X41.5346 Y19.4342 F150.00
G01 X41.5268 Y19.4245 F150.00
G01 X41.5194 Y19.4145 F150.00
G01 X41.5125 Y19.4042 F150.00
G01 X41.5032 Y19.3880 F150.00
G01 X41.4977 Y19.3769 F150.00
G01 X41.4904 Y19.3597 F150.00
G01 X41.4845 Y19.3420 F150.00
G01 X41.4798 Y19.3239 F150.00
G01 X41.4766 Y19.3056 F150.00
G01 X41.4752 Y19.2932 F150.00
G01 X41.4742 Y19.2746 F150.00
G01 X41.4747 Y19.2559 F150.00
G01 X41.7224 Y15.2029 F150.00
G01 X41.7234 Y15.1906 F150.00
G01 X41.7251 Y15.1783 F150.00
G01 X41.7274 Y15.1661 F150.00
G01 X41.7303 Y15.1540 F150.00
G01 X41.7337 Y15.1421 F150.00
G01 X41.7378 Y15.1304 F150.00
G01 X41.7450 Y15.1132 F150.00
G01 X41.7505 Y15.1021 F150.00
G01 X41.7597 Y15.0860 F150.00
G01 X41.7665 Y15.0756 F150.00
G01 X41.7739 Y15.0656 F150.00
G01 X41.7858 Y15.0513 F150.00
G01 X42.7026 Y14.0783 F150.00
G01 X42.7162 Y14.0649 F150.00
G01 X42.7258 Y14.0565 F150.00
G01 X42.7410 Y14.0450 F150.00
G01 X42.7571 Y14.0346 F150.00
G01 X42.7739 Y14.0255 F150.00
G01 X42.7854 Y14.0202 F150.00
G01 X42.8032 Y14.0133 F150.00
G01 X42.8154 Y14.0095 F150.00
G01 X42.8339 Y14.0049 F150.00
G01 X42.8528 Y14.0017 F150.00
G01 X42.8654 Y14.0004 F150.00
G01 X42.8845 Y13.9997 F150.00
G01 X73.1459 Y13.9997 F150.00
G01 X73.1614 Y13.9993 F150.00
G01 X73.1876 Y13.9976 F150.00
G01 X73.1966 Y13.9966 F150.00
G01 X73.2225 Y13.9924 F150.00
G01 X73.2313 Y13.9906 F150.00
G01 X73.2568 Y13.9838 F150.00
G01 X73.2653 Y13.9811 F150.00
G01 X73.2900 Y13.9719 F150.00
G01 X73.2983 Y13.9683 F150.00
G01 X73.3219 Y13.9568 F150.00
G01 X73.3298 Y13.9524 F150.00
G01 X73.3521 Y13.9386 F150.00
G01 X73.3595 Y13.9335 F150.00
G01 X73.3804 Y13.9175 F150.00
G01 X73.3873 Y13.9117 F150.00
G01 X73.4066 Y13.8938 F150.00
G01 X73.4128 Y13.8874 F150.00
G01 X73.4302 Y13.8676 F150.00
G01 X73.4359 Y13.8606 F150.00
G01 X73.4512 Y13.8393 F150.00
G01 X73.4561 Y13.8317 F150.00
G01 X73.4693 Y13.8090 F150.00
G01 X73.4767 Y13.7953 F150.00
G01 X74.3840 Y11.9805 F150.00
G01 X74.3926 Y11.9648 F150.00
G01 X74.3990 Y11.9546 F150.00
G01 X74.4058 Y11.9448 F150.00
G01 X74.4131 Y11.9353 F150.00
G01 X74.4249 Y11.9217 F150.00
G01 X74.4332 Y11.9132 F150.00
G01 X74.4465 Y11.9011 F150.00
G01 X74.4607 Y11.8901 F150.00
G01 X74.4705 Y11.8833 F150.00
G01 X74.4859 Y11.8740 F150.00
G01 X74.4965 Y11.8684 F150.00
G01 X74.5128 Y11.8610 F150.00
G01 X74.5297 Y11.8548 F150.00
G01 X74.5469 Y11.8498 F150.00
G01 X74.6115 Y11.8336 F150.00
G01 X74.6799 Y11.8091 F150.00
G01 X74.7456 Y11.7781 F150.00
G01 X74.8079 Y11.7407 F150.00
G01 X74.8662 Y11.6975 F150.00
G01 X74.9201 Y11.6487 F150.00
G01 X74.9689 Y11.5948 F150.00
G01 X75.0121 Y11.5365 F150.00
G01 X75.0495 Y11.4742 F150.00
G01 X75.0805 Y11.4085 F150.00
G01 X75.1050 Y11.3401 F150.00
G01 X75.1227 Y11.2696 F150.00
G01 X75.1333 Y11.1978 F150.00
G01 X75.1369 Y11.1252 F150.00
G01 X75.1333 Y11.0526 F150.00
G01 X75.1227 Y10.9808 F150.00
G01 X75.1050 Y10.9103 F150.00
G01 X75.0805 Y10.8419 F150.00
G01 X75.0495 Y10.7762 F150.00
G01 X75.0121 Y10.7139 F150.00
G01 X74.9689 Y10.6556 F150.00
G01 X74.9201 Y10.6017 F150.00
G01 X74.8662 Y10.5529 F150.00
G01 X74.8079 Y10.5097 F150.00
G01 X74.7456 Y10.4723 F150.00
G01 X74.6799 Y10.4413 F150.00
G01 X74.6115 Y10.4168 F150.00
G01 X74.5410 Y10.3991 F150.00
G01 X74.4692 Y10.3885 F150.00
G01 X74.3966 Y10.3849 F150.00
G01 X74.3240 Y10.3885 F150.00
G01 X74.2522 Y10.3991 F150.00
G01 X74.1817 Y10.4168 F150.00
G01 X74.1133 Y10.4413 F150.00
G01 X74.0476 Y10.4723 F150.00
G01 X73.9853 Y10.5097 F150.00
G01 X73.9270 Y10.5529 F150.00
G01 X73.8731 Y10.6017 F150.00
G01 X73.8243 Y10.6556 F150.00
G01 X73.7811 Y10.7139 F150.00
G01 X73.7437 Y10.7762 F150.00
G01 X73.7127 Y10.8419 F150.00
G01 X73.6882 Y10.9103 F150.00
G01 X73.6705 Y10.9808 F150.00
G01 X73.6599 Y11.0526 F150.00
G01 X73.6563 Y11.1252 F150.00
G01 X73.6599 Y11.1978 F150.00
G01 X73.6705 Y11.2696 F150.00
G01 X73.6882 Y11.3401 F150.00
G01 X73.7127 Y11.4085 F150.00
G01 X73.7375 Y11.4611 F150.00
G01 X73.7444 Y11.4787 F150.00
G01 X73.7483 Y11.4906 F150.00
G01 X73.7517 Y11.5027 F150.00
G01 X73.7543 Y11.5150 F150.00
G01 X73.7564 Y11.5274 F150.00
G01 X73.7583 Y11.5462 F150.00
G01 X73.7588 Y11.5650 F150.00
G01 X73.7584 Y11.5776 F150.00
G01 X73.7565 Y11.5964 F150.00
G01 X73.7532 Y11.6150 F150.00
G01 X73.7503 Y11.6272 F150.00
G01 X73.7447 Y11.6452 F150.00
G01 X73.7403 Y11.6569 F150.00
G01 X73.7325 Y11.6741 F150.00
G01 X72.9987 Y13.1417 F150.00
G01 X72.9896 Y13.1582 F150.00
G01 X72.9829 Y13.1689 F150.00
G01 X72.9718 Y13.1842 F150.00
G01 X72.9638 Y13.1939 F150.00
G01 X72.9553 Y13.2031 F150.00
G01 X72.9417 Y13.2162 F150.00
G01 X72.9321 Y13.2244 F150.00
G01 X72.9222 Y13.2320 F150.00
G01 X72.9065 Y13.2426 F150.00
G01 X72.8956 Y13.2489 F150.00
G01 X72.8788 Y13.2574 F150.00
G01 X72.8672 Y13.2623 F150.00
G01 X72.8494 Y13.2686 F150.00
G01 X72.8373 Y13.2720 F150.00
G01 X72.8250 Y13.2748 F150.00
G01 X72.8064 Y13.2779 F150.00
G01 X72.7939 Y13.2792 F150.00
G01 X72.7751 Y13.2799 F150.00
G01 X42.6273 Y13.2799 F150.00
G01 X42.6108 Y13.2803 F150.00
G01 X42.5856 Y13.2819 F150.00
G01 X42.5756 Y13.2831 F150.00
G01 X42.5507 Y13.2872 F150.00
G01 X42.5409 Y13.2893 F150.00
G01 X42.5165 Y13.2958 F150.00
G01 X42.5069 Y13.2988 F150.00
G01 X42.4833 Y13.3077 F150.00
G01 X42.4741 Y13.3117 F150.00
G01 X42.4514 Y13.3228 F150.00
G01 X42.4426 Y13.3277 F150.00
G01 X42.4212 Y13.3410 F150.00
G01 X42.4129 Y13.3467 F150.00
G01 X42.3928 Y13.3620 F150.00
G01 X42.3851 Y13.3685 F150.00
G01 X42.3667 Y13.3857 F150.00
G01 X42.3551 Y13.3974 F150.00
G01 X41.1189 Y14.7093 F150.00
G01 X41.0920 Y14.7408 F150.00
G01 X41.0718 Y14.7698 F150.00
G01 X41.0546 Y14.8006 F150.00
G01 X41.0404 Y14.8329 F150.00
G01 X41.0343 Y14.8519 F150.00
G01 X41.0295 Y14.8665 F150.00
G01 X41.0220 Y14.9009 F150.00
G01 X41.0174 Y14.9395 F150.00
G01 X41.3574 Y14.9458 F150.00
G01 X41.3549 Y14.9498 F150.00
G01 X41.3532 Y14.9543 F150.00
G01 X41.3512 Y14.9694 F150.00
G01 X41.0902 Y19.2385 F150.00
G01 X41.0882 Y19.2626 F150.00
G01 X41.0855 Y19.2848 F150.00
G01 X41.0809 Y19.3127 F150.00
G01 X41.0749 Y19.3404 F150.00
G01 X41.0676 Y19.3677 F150.00
G01 X41.0589 Y19.3947 F150.00
G01 X41.0490 Y19.4212 F150.00
G01 X41.0378 Y19.4472 F150.00
G01 X41.0253 Y19.4727 F150.00
G01 X41.0086 Y19.5027 F150.00
G01 X40.9935 Y19.5267 F150.00
G01 X40.9855 Y19.5384 F150.00
G01 X40.9724 Y19.5564 F150.00
G01 X40.9547 Y19.5785 F150.00
G01 X40.9318 Y19.6042 F150.00
G01 X40.9119 Y19.6243 F150.00
G01 X40.8956 Y19.6395 F150.00
G01 X40.8849 Y19.6488 F150.00
G01 X40.8629 Y19.6666 F150.00
G01 X40.8149 Y19.7022 F150.00
G01 X40.7855 Y19.7289 F150.00
G01 X40.7588 Y19.7583 F150.00
G01 X40.7351 Y19.7903 F150.00
G01 X40.7147 Y19.8243 F150.00
G01 X40.6977 Y19.8603 F150.00
G01 X40.6843 Y19.8977 F150.00
G01 X40.6747 Y19.9362 F150.00
G01 X40.6689 Y19.9755 F150.00
G01 X40.6669 Y20.0152 F150.00
G01 X40.6689 Y20.0549 F150.00
G01 X40.6747 Y20.0942 F150.00
G01 X40.6843 Y20.1327 F150.00
G01 X40.6977 Y20.1701 F150.00
G01 X40.7147 Y20.2061 F150.00
G01 X40.7351 Y20.2401 F150.00
G01 X40.7588 Y20.2721 F150.00
G01 X40.7855 Y20.3015 F150.00
G01 X40.8149 Y20.3282 F150.00
G01 X40.8469 Y20.3519 F150.00
G01 X40.8809 Y20.3723 F150.00
G01 X40.9169 Y20.3893 F150.00
G01 X40.9543 Y20.4027 F150.00
G01 X40.9928 Y20.4123 F150.00
G01 X41.0321 Y20.4181 F150.00
G01 X41.0718 Y20.4201 F150.00
G01 X41.1115 Y20.4181 F150.00
G01 X41.1508 Y20.4123 F150.00
G01 X41.1893 Y20.4027 F150.00
G01 X41.2267 Y20.3893 F150.00
G01 X41.2627 Y20.3723 F150.00
G01 X41.2967 Y20.3519 F150.00
G01 X41.3287 Y20.3282 F150.00
G01 X41.3581 Y20.3015 F150.00
G01 X41.3848 Y20.2721 F150.00
G01 X41.4085 Y20.2401 F150.00
G01 X41.4289 Y20.2061 F150.00
G01 X41.4459 Y20.1701 F150.00
G01 X41.4593 Y20.1327 F150.00
G01 X41.4689 Y20.0942 F150.00
G01 X41.4747 Y20.0549 F150.00
G01 X41.4767 Y20.0152 F150.00
G01 X41.4747 Y19.9755 F150.00
G01 X41.4689 Y19.9362 F150.00
G01 X41.4593 Y19.8977 F150.00
G01 X41.4459 Y19.8603 F150.00
G01 X41.4289 Y19.8243 F150.00
G01 X41.4085 Y19.7903 F150.00
G01 X41.3848 Y19.7583 F150.00
G01 X41.3581 Y19.7289 F150.00
G01 X41.3237 Y19.6976 F150.00
G01 X41.3074 Y19.6816 F150.00
G01 X41.2902 Y19.6635 F150.00
G01 X41.2739 Y19.6446 F150.00
G01 X41.2559 Y19.6218 F150.00
G01 X41.2391 Y19.5980 F150.00
G01 X41.2234 Y19.5735 F150.00
G01 X41.2090 Y19.5482 F150.00
G01 X41.1941 Y19.5185 F150.00
G01 X41.1809 Y19.4880 F150.00
G01 X41.1735 Y19.4685 F150.00
G01 X41.1688 Y19.4548 F150.00
G01 X41.1620 Y19.4329 F150.00
G01 X41.1582 Y19.4189 F150.00
G01 X41.1547 Y19.4048 F150.00
G01 X41.1503 Y19.3845 F150.00
G01 X41.1448 Y19.3517 F150.00
G01 X41.1411 Y19.3186 F150.00
G01 X41.1398 Y19.2979 F150.00
G01 X41.1394 Y19.2833 F150.00
G01 X41.1393 Y19.2604 F150.00
G01 X41.1403 Y19.2355 F150.00
G01 X41.3880 Y15.1825 F150.00
G01 X41.3910 Y15.1495 F150.00
G01 X41.3944 Y15.1248 F150.00
G01 X41.3989 Y15.1004 F150.00
G01 X41.4054 Y15.0721 F150.00
G01 X41.4134 Y15.0442 F150.00
G01 X41.4241 Y15.0128 F150.00
G01 X41.4367 Y14.9821 F150.00
G01 X41.4454 Y14.9633 F150.00
G01 X41.4519 Y14.9503 F150.00
G01 X41.4587 Y14.9375 F150.00
G01 X41.4700 Y14.9177 F150.00
G01 X41.4776 Y14.9053 F150.00
G01 X41.4890 Y14.8880 F150.00
G01 X41.5085 Y14.8611 F150.00
G01 X41.5295 Y14.8355 F150.00
G01 X41.5461 Y14.8170 F150.00
G01 X42.4587 Y13.8485 F150.00
G01 X42.4721 Y13.8348 F150.00
G01 X42.4875 Y13.8201 F150.00
G01 X42.5018 Y13.8073 F150.00
G01 X42.5165 Y13.7950 F150.00
G01 X42.5332 Y13.7819 F150.00
G01 X42.5487 Y13.7707 F150.00
G01 X42.5646 Y13.7599 F150.00
G01 X42.5826 Y13.7486 F150.00
G01 X42.5992 Y13.7390 F150.00
G01 X42.6161 Y13.7299 F150.00
G01 X42.6352 Y13.7205 F150.00
G01 X42.6526 Y13.7126 F150.00
G01 X42.6704 Y13.7053 F150.00
G01 X42.6903 Y13.6979 F150.00
G01 X42.7085 Y13.6918 F150.00
G01 X42.7268 Y13.6864 F150.00
G01 X42.7474 Y13.6810 F150.00
G01 X42.7661 Y13.6768 F150.00
G01 X42.7850 Y13.6732 F150.00
G01 X42.8060 Y13.6700 F150.00
G01 X42.8250 Y13.6677 F150.00
G01 X42.8441 Y13.6661 F150.00
G01 X42.8653 Y13.6650 F150.00
G01 X42.8845 Y13.6647 F150.00
G01 X73.1386 Y13.6647 F150.00
G01 X73.1547 Y13.6639 F150.00
G01 X73.1616 Y13.6621 F150.00
G01 X73.1676 Y13.6583 F150.00
G01 X73.1723 Y13.6530 F150.00
G01 X73.1787 Y13.6419 F150.00
G01 X74.0844 Y11.8307 F150.00
G01 X74.0995 Y11.8025 F150.00
G01 X74.1140 Y11.7785 F150.00
G01 X74.1295 Y11.7552 F150.00
G01 X74.1499 Y11.7280 F150.00
G01 X74.1679 Y11.7065 F150.00
G01 X74.1827 Y11.6903 F150.00
G01 X74.1924 Y11.6802 F150.00
G01 X74.2126 Y11.6608 F150.00
G01 X74.2384 Y11.6386 F150.00
G01 X74.2493 Y11.6299 F150.00
G01 X74.2670 Y11.6167 F150.00
G01 X74.2901 Y11.6010 F150.00
G01 X74.3140 Y11.5863 F150.00
G01 X74.3386 Y11.5729 F150.00
G01 X74.3637 Y11.5606 F150.00
G01 X74.3895 Y11.5495 F150.00
G01 X74.4157 Y11.5397 F150.00
G01 X74.4423 Y11.5312 F150.00
G01 X74.4616 Y11.5258 F150.00
G01 X74.5141 Y11.5127 F150.00
G01 X74.5515 Y11.4993 F150.00
G01 X74.5875 Y11.4823 F150.00
G01 X74.6215 Y11.4619 F150.00
G01 X74.6535 Y11.4382 F150.00
G01 X74.6829 Y11.4115 F150.00
G01 X74.7096 Y11.3821 F150.00
G01 X74.7333 Y11.3501 F150.00
G01 X74.7537 Y11.3161 F150.00
G01 X74.7707 Y11.2801 F150.00
G01 X74.7841 Y11.2427 F150.00
G01 X74.7937 Y11.2042 F150.00
G01 X74.7995 Y11.1649 F150.00
G01 X74.8015 Y11.1252 F150.00
G01 X74.7995 Y11.0855 F150.00
G01 X74.7937 Y11.0462 F150.00
G01 X74.7841 Y11.0077 F150.00
G01 X74.7707 Y10.9703 F150.00
G01 X74.7537 Y10.9343 F150.00
G01 X74.7333 Y10.9003 F150.00
G01 X74.7096 Y10.8683 F150.00
G01 X74.6829 Y10.8389 F150.00
G01 X74.6535 Y10.8122 F150.00
G01 X74.6215 Y10.7885 F150.00
G01 X74.5875 Y10.7681 F150.00
G01 X74.5515 Y10.7511 F150.00
G01 X74.5141 Y10.7377 F150.00
G01 X74.4756 Y10.7281 F150.00
G01 X74.4363 Y10.7223 F150.00
G01 X74.3966 Y10.7203 F150.00
G01 X74.3569 Y10.7223 F150.00
G01 X74.3176 Y10.7281 F150.00
G01 X74.2791 Y10.7377 F150.00
G01 X74.2417 Y10.7511 F150.00
G01 X74.2057 Y10.7681 F150.00
G01 X74.1717 Y10.7885 F150.00
G01 X74.1397 Y10.8122 F150.00
G01 X74.1103 Y10.8389 F150.00
G01 X74.0836 Y10.8683 F150.00
G01 X74.0599 Y10.9003 F150.00
G01 X74.0395 Y10.9343 F150.00
G01 X74.0225 Y10.9703 F150.00
G01 X74.0091 Y11.0077 F150.00
G01 X73.9995 Y11.0462 F150.00
G01 X73.9937 Y11.0855 F150.00
G01 X73.9917 Y11.1252 F150.00
G01 X73.9937 Y11.1649 F150.00
G01 X73.9995 Y11.2042 F150.00
G01 X74.0091 Y11.2427 F150.00
G01 X74.0225 Y11.2801 F150.00
G01 X74.0421 Y11.3217 F150.00
G01 X74.0512 Y11.3430 F150.00
G01 X74.0601 Y11.3666 F150.00
G01 X74.0680 Y11.3905 F150.00
G01 X74.0770 Y11.4229 F150.00
G01 X74.0841 Y11.4558 F150.00
G01 X74.0887 Y11.4849 F150.00
G01 X74.0905 Y11.4995 F150.00
G01 X74.0923 Y11.5204 F150.00
G01 X74.0934 Y11.5393 F150.00
G01 X74.0938 Y11.5582 F150.00
G01 X74.0936 Y11.5792 F150.00
G01 X74.0930 Y11.5939 F150.00
G01 X74.0920 Y11.6086 F150.00
G01 X74.0897 Y11.6316 F150.00
G01 X74.0869 Y11.6524 F150.00
G01 X74.0844 Y11.6669 F150.00
G01 X74.0816 Y11.6814 F150.00
G01 X74.0764 Y11.7039 F150.00
G01 X74.0710 Y11.7242 F150.00
G01 X74.0667 Y11.7383 F150.00
G01 X74.0557 Y11.7701 F150.00
G01 X74.0487 Y11.7876 F150.00
G01 X74.0403 Y11.8069 F150.00
G01 X74.0321 Y11.8239 F150.00
G01 X73.2983 Y13.2915 F150.00
G01 X73.2895 Y13.3083 F150.00
G01 X73.2792 Y13.3266 F150.00
G01 X73.2694 Y13.3428 F150.00
G01 X73.2590 Y13.3586 F150.00
G01 X73.2469 Y13.3758 F150.00
G01 X73.2380 Y13.3875 F150.00
G01 X73.2194 Y13.4104 F150.00
G01 X73.1968 Y13.4353 F150.00
G01 X73.1728 Y13.4589 F150.00
G01 X73.1507 Y13.4783 F150.00
G01 X73.1393 Y13.4876 F150.00
G01 X73.1227 Y13.5004 F150.00
G01 X73.0985 Y13.5173 F150.00
G01 X73.0790 Y13.5297 F150.00
G01 X73.0663 Y13.5372 F150.00
G01 X73.0405 Y13.5512 F150.00
G01 X73.0273 Y13.5577 F150.00
G01 X73.0081 Y13.5664 F150.00
G01 X72.9809 Y13.5775 F150.00
G01 X72.9490 Y13.5884 F150.00
G01 X72.9166 Y13.5975 F150.00
G01 X72.8879 Y13.6039 F150.00
G01 X72.8734 Y13.6066 F150.00
G01 X72.8526 Y13.6097 F150.00
G01 X72.8234 Y13.6129 F150.00
G01 X72.8003 Y13.6143 F150.00
G01 X72.7751 Y13.6149 F150.00
G01 X42.6347 Y13.6149 F150.00
G01 X42.6261 Y13.6152 F150.00
G01 X42.6161 Y13.6161 F150.00
G01 X42.6116 Y13.6175 F150.00
G01 X42.6074 Y13.6198 F150.00
G01 X42.5968 Y13.6296 F150.00
G01 X41.3683 Y14.9331 F150.00
G01 X41.3574 Y14.9458 F150.00
G01 X41.0766 Y19.9247 F150.00
G01 X41.0592 Y19.9381 F150.00
G01 X41.0277 Y19.9615 F150.00
G01 X41.0227 Y19.9661 F150.00
G01 X41.0181 Y19.9711 F150.00
G01 X41.0140 Y19.9766 F150.00
G01 X41.0105 Y19.9824 F150.00
G01 X41.0076 Y19.9886 F150.00
G01 X41.0053 Y19.9950 F150.00
G01 X41.0036 Y20.0016 F150.00
G01 X41.0026 Y20.0084 F150.00
G01 X41.0023 Y20.0152 F150.00
G01 X41.0026 Y20.0220 F150.00
G01 X41.0036 Y20.0288 F150.00
G01 X41.0053 Y20.0354 F150.00
G01 X41.0076 Y20.0418 F150.00
G01 X41.0105 Y20.0480 F150.00
G01 X41.0140 Y20.0538 F150.00
G01 X41.0181 Y20.0593 F150.00
G01 X41.0227 Y20.0643 F150.00
G01 X41.0277 Y20.0689 F150.00
G01 X41.0332 Y20.0730 F150.00
G01 X41.0390 Y20.0765 F150.00
G01 X41.0452 Y20.0794 F150.00
G01 X41.0516 Y20.0817 F150.00
G01 X41.0582 Y20.0834 F150.00
G01 X41.0650 Y20.0844 F150.00
G01 X41.0718 Y20.0847 F150.00
G01 X41.0786 Y20.0844 F150.00
G01 X41.0854 Y20.0834 F150.00
G01 X41.0920 Y20.0817 F150.00
G01 X41.0984 Y20.0794 F150.00
G01 X41.1046 Y20.0765 F150.00
G01 X41.1104 Y20.0730 F150.00
G01 X41.1159 Y20.0689 F150.00
G01 X41.1209 Y20.0643 F150.00
G01 X41.1255 Y20.0593 F150.00
G01 X41.1296 Y20.0538 F150.00
G01 X41.1331 Y20.0480 F150.00
G01 X41.1360 Y20.0418 F150.00
G01 X41.1383 Y20.0354 F150.00
G01 X41.1400 Y20.0288 F150.00
G01 X41.1410 Y20.0220 F150.00
G01 X41.1413 Y20.0152 F150.00
G01 X41.1410 Y20.0084 F150.00
G01 X41.1400 Y20.0016 F150.00
G01 X41.1383 Y19.9950 F150.00
G01 X41.1360 Y19.9886 F150.00
G01 X41.1331 Y19.9824 F150.00
G01 X41.1296 Y19.9766 F150.00
G01 X41.1255 Y19.9711 F150.00
G01 X41.1209 Y19.9661 F150.00
G01 X41.0957 Y19.9430 F150.00
G01 X41.0766 Y19.9247 F150.00
G00 Z2.0000
G00 X43.6170 Y20.1058
G01 F50.00
G01 Z0.0000
G01 F150.00
G01 X43.6367 Y20.0866 F150.00
G01 X43.6609 Y20.0643 F150.00
G01 X43.6655 Y20.0593 F150.00
G01 X43.6696 Y20.0538 F150.00
G01 X43.6731 Y20.0480 F150.00
G01 X43.6760 Y20.0418 F150.00
G01 X43.6783 Y20.0354 F150.00
G01 X43.6800 Y20.0288 F150.00
G01 X43.6810 Y20.0220 F150.00
G01 X43.6813 Y20.0152 F150.00
G01 X43.6810 Y20.0084 F150.00
G01 X43.6800 Y20.0016 F150.00
G01 X43.6783 Y19.9950 F150.00
G01 X43.6760 Y19.9886 F150.00
G01 X43.6731 Y19.9824 F150.00
G01 X43.6696 Y19.9766 F150.00
G01 X43.6655 Y19.9711 F150.00
G01 X43.6609 Y19.9661 F150.00
G01 X43.6559 Y19.9615 F150.00
G01 X43.6504 Y19.9574 F150.00
G01 X43.6446 Y19.9539 F150.00
G01 X43.6384 Y19.9510 F150.00
G01 X43.6320 Y19.9487 F150.00
G01 X43.6254 Y19.9470 F150.00
G01 X43.6186 Y19.9460 F150.00
G01 X43.6118 Y19.9457 F150.00
G01 X43.6050 Y19.9460 F150.00
G01 X43.5982 Y19.9470 F150.00
G01 X43.5916 Y19.9487 F150.00
G01 X43.5852 Y19.9510 F150.00
G01 X43.5790 Y19.9539 F150.00
G01 X43.5732 Y19.9574 F150.00
G01 X43.5677 Y19.9615 F150.00
G01 X43.5627 Y19.9661 F150.00
G01 X43.5581 Y19.9711 F150.00
G01 X43.5540 Y19.9766 F150.00
G01 X43.5505 Y19.9824 F150.00
G01 X43.5476 Y19.9886 F150.00
G01 X43.5453 Y19.9950 F150.00
G01 X43.5436 Y20.0016 F150.00
G01 X43.5426 Y20.0084 F150.00
G01 X43.5423 Y20.0152 F150.00
G01 X43.5426 Y20.0220 F150.00
G01 X43.5436 Y20.0288 F150.00
G01 X43.5453 Y20.0354 F150.00
G01 X43.5476 Y20.0418 F150.00
G01 X43.5505 Y20.0480 F150.00
G01 X43.5540 Y20.0538 F150.00
G01 X43.5581 Y20.0593 F150.00
G01 X43.5627 Y20.0643 F150.00
G01 X43.5677 Y20.0689 F150.00
G01 X43.6170 Y20.1058 F150.00
G00 Z2.0000
G00 X46.1573 Y20.1059
G01 F50.00
G01 Z0.0000
G01 F150.00
G01 X46.1809 Y20.0828 F150.00
G01 X46.2009 Y20.0643 F150.00
G01 X46.2055 Y20.0593 F150.00
G01 X46.2096 Y20.0538 F150.00
G01 X46.2131 Y20.0480 F150.00
G01 X46.2160 Y20.0418 F150.00
G01 X46.2183 Y20.0354 F150.00
G01 X46.2200 Y20.0288 F150.00
G01 X46.2210 Y20.0220 F150.00
G01 X46.2213 Y20.0152 F150.00
G01 X46.2210 Y20.0084 F150.00
G01 X46.2200 Y20.0016 F150.00
G01 X46.2183 Y19.9950 F150.00
G01 X46.2160 Y19.9886 F150.00
G01 X46.2131 Y19.9824 F150.00
G01 X46.2096 Y19.9766 F150.00
G01 X46.2055 Y19.9711 F150.00
G01 X46.2009 Y19.9661 F150.00
G01 X46.1959 Y19.9615 F150.00
G01 X46.1904 Y19.9574 F150.00
G01 X46.1846 Y19.9539 F150.00
G01 X46.1784 Y19.9510 F150.00
G01 X46.1720 Y19.9487 F150.00
G01 X46.1654 Y19.9470 F150.00
G01 X46.1586 Y19.9460 F150.00
G01 X46.1518 Y19.9457 F150.00
G01 X46.1450 Y19.9460 F150.00
G01 X46.1382 Y19.9470 F150.00
G01 X46.1316 Y19.9487 F150.00
G01 X46.1252 Y19.9510 F150.00
G01 X46.1190 Y19.9539 F150.00
G01 X46.1132 Y19.9574 F150.00
G01 X46.1077 Y19.9615 F150.00
G01 X46.1027 Y19.9661 F150.00
G01 X46.0981 Y19.9711 F150.00
G01 X46.0940 Y19.9766 F150.00
G01 X46.0905 Y19.9824 F150.00
G01 X46.0876 Y19.9886 F150.00
G01 X46.0853 Y19.9950 F150.00
G01 X46.0836 Y20.0016 F150.00
G01 X46.0826 Y20.0084 F150.00
G01 X46.0823 Y20.0152 F150.00
G01 X46.0826 Y20.0220 F150.00
G01 X46.0836 Y20.0288 F150.00
G01 X46.0853 Y20.0354 F150.00
G01 X46.0876 Y20.0418 F150.00
G01 X46.0905 Y20.0480 F150.00
G01 X46.0940 Y20.0538 F150.00
G01 X46.0981 Y20.0593 F150.00
G01 X46.1027 Y20.0643 F150.00
G01 X46.1077 Y20.0689 F150.00
G01 X46.1573 Y20.1059 F150.00
G00 Z2.0000
G00 X48.6973 Y20.1059
G01 F50.00
G01 Z0.0000
G01 F150.00
G01 X48.7209 Y20.0828 F150.00
G01 X48.7409 Y20.0643 F150.00
G01 X48.7455 Y20.0593 F150.00
G01 X48.7496 Y20.0538 F150.00
G01 X48.7531 Y20.0480 F150.00
G01 X48.7560 Y20.0418 F150.00
G01 X48.7583 Y20.0354 F150.00
G01 X48.7600 Y20.0288 F150.00
G01 X48.7610 Y20.0220 F150.00
G01 X48.7613 Y20.0152 F150.00
G01 X48.7610 Y20.0084 F150.00
G01 X48.7600 Y20.0016 F150.00
G01 X48.7583 Y19.9950 F150.00
G01 X48.7560 Y19.9886 F150.00
G01 X48.7531 Y19.9824 F150.00
G01 X48.7496 Y19.9766 F150.00
G01 X48.7455 Y19.9711 F150.00
G01 X48.7409 Y19.9661 F150.00
G01 X48.7359 Y19.9615 F150.00
G01 X48.7304 Y19.9574 F150.00
G01 X48.7246 Y19.9539 F150.00
G01 X48.7184 Y19.9510 F150.00
G01 X48.7120 Y19.9487 F150.00
G01 X48.7054 Y19.9470 F150.00
G01 X48.6986 Y19.9460 F150.00
G01 X48.6918 Y19.9457 F150.00
G01 X48.6850 Y19.9460 F150.00
G01 X48.6782 Y19.9470 F150.00
G01 X48.6716 Y19.9487 F150.00
G01 X48.6652 Y19.9510 F150.00
G01 X48.6590 Y19.9539 F150.00
G01 X48.6532 Y19.9574 F150.00
G01 X48.6477 Y19.9615 F150.00
G01 X48.6427 Y19.9661 F150.00
G01 X48.6381 Y19.9711 F150.00
G01 X48.6340 Y19.9766 F150.00
G01 X48.6305 Y19.9824 F150.00
G01 X48.6276 Y19.9886 F150.00
G01 X48.6253 Y19.9950 F150.00
G01 X48.6236 Y20.0016 F150.00
G01 X48.6226 Y20.0084 F150.00
G01 X48.6223 Y20.0152 F150.00
G01 X48.6226 Y20.0220 F150.00
G01 X48.6236 Y20.0288 F150.00
G01 X48.6253 Y20.0354 F150.00
G01 X48.6276 Y20.0418 F150.00
G01 X48.6305 Y20.0480 F150.00
G01 X48.6340 Y20.0538 F150.00
G01 X48.6381 Y20.0593 F150.00
G01 X48.6427 Y20.0643 F150.00
G01 X48.6477 Y20.0689 F150.00
G01 X48.6973 Y20.1059 F150.00
G00 Z2.0000
G00 X51.2371 Y20.1059
G01 F50.00
G01 Z0.0000
G01 F150.00
G01 X51.2588 Y20.0847 F150.00
G01 X51.2809 Y20.0643 F150.00
G01 X51.2855 Y20.0593 F150.00
G01 X51.2896 Y20.0538 F150.00
G01 X51.2931 Y20.0480 F150.00
G01 X51.2960 Y20.0418 F150.00
G01 X51.2983 Y20.0354 F150.00
G01 X51.3000 Y20.0288 F150.00
G01 X51.3010 Y20.0220 F150.00
G01 X51.3013 Y20.0152 F150.00
G01 X51.3010 Y20.0084 F150.00
G01 X51.3000 Y20.0016 F150.00
G01 X51.2983 Y19.9950 F150.00
G01 X51.2960 Y19.9886 F150.00
G01 X51.2931 Y19.9824 F150.00
G01 X51.2896 Y19.9766 F150.00
G01 X51.2855 Y19.9711 F150.00
G01 X51.2809 Y19.9661 F150.00
G01 X51.2759 Y19.9615 F150.00
G01 X51.2704 Y19.9574 F150.00
G01 X51.2646 Y19.9539 F150.00
G01 X51.2584 Y19.9510 F150.00
G01 X51.2520 Y19.9487 F150.00
G01 X51.2454 Y19.9470 F150.00
G01 X51.2386 Y19.9460 F150.00
G01 X51.2318 Y19.9457 F150.00
G01 X51.2250 Y19.9460 F150.00
G01 X51.2182 Y19.9470 F150.00
G01 X51.2116 Y19.9487 F150.00
G01 X51.2052 Y19.9510 F150.00
G01 X51.1990 Y19.9539 F150.00
G01 X51.1932 Y19.9574 F150.00
G01 X51.1877 Y19.9615 F150.00
G01 X51.1827 Y19.9661 F150.00
G01 X51.1781 Y19.9711 F150.00
G01 X51.1740 Y19.9766 F150.00
G01 X51.1705 Y19.9824 F150.00
G01 X51.1676 Y19.9886 F150.00
G01 X51.1653 Y19.9950 F150.00
G01 X51.1636 Y20.0016 F150.00
G01 X51.1626 Y20.0084 F150.00
G01 X51.1623 Y20.0152 F150.00
G01 X51.1626 Y20.0220 F150.00
G01 X51.1636 Y20.0288 F150.00
G01 X51.1653 Y20.0354 F150.00
G01 X51.1676 Y20.0418 F150.00
G01 X51.1705 Y20.0480 F150.00
G01 X51.1740 Y20.0538 F150.00
G01 X51.1781 Y20.0593 F150.00
G01 X51.1827 Y20.0643 F150.00
G01 X51.1877 Y20.0689 F150.00
G01 X51.2371 Y20.1059 F150.00
G00 Z2.0000
G00 X55.5715 Y20.0152
G01 F50.00
G01 Z0.0000
G01 F150.00
G01 X55.5751 Y20.0878 F150.00
G01 X55.5857 Y20.1596 F150.00
G01 X55.6034 Y20.2301 F150.00
G01 X55.6279 Y20.2985 F150.00
G01 X55.6589 Y20.3642 F150.00
G01 X55.6963 Y20.4265 F150.00
G01 X55.7395 Y20.4848 F150.00
G01 X55.7883 Y20.5387 F150.00
G01 X55.8422 Y20.5875 F150.00
G01 X55.9005 Y20.6307 F150.00
G01 X55.9628 Y20.6681 F150.00
G01 X56.0285 Y20.6991 F150.00
G01 X56.0969 Y20.7236 F150.00
G01 X56.1674 Y20.7413 F150.00
G01 X56.2392 Y20.7519 F150.00
G01 X56.3118 Y20.7555 F150.00
G01 X56.3844 Y20.7519 F150.00
G01 X56.4562 Y20.7413 F150.00
G01 X56.5267 Y20.7236 F150.00
G01 X56.5951 Y20.6991 F150.00
G01 X56.6608 Y20.6681 F150.00
G01 X56.7231 Y20.6307 F150.00
G01 X56.7814 Y20.5875 F150.00
G01 X56.8353 Y20.5387 F150.00
G01 X56.8841 Y20.4848 F150.00
G01 X56.9273 Y20.4265 F150.00
G01 X56.9647 Y20.3642 F150.00
G01 X56.9957 Y20.2985 F150.00
G01 X57.0202 Y20.2301 F150.00
G01 X57.0379 Y20.1596 F150.00
G01 X57.0485 Y20.0878 F150.00
G01 X57.0521 Y20.0152 F150.00
G01 X57.0485 Y19.9426 F150.00
G01 X57.0379 Y19.8708 F150.00
G01 X57.0202 Y19.8003 F150.00
G01 X56.9957 Y19.7319 F150.00
G01 X56.9647 Y19.6662 F150.00
G01 X56.9273 Y19.6039 F150.00
G01 X56.8841 Y19.5456 F150.00
G01 X56.8353 Y19.4917 F150.00
G01 X56.7814 Y19.4429 F150.00
G01 X56.7231 Y19.3997 F150.00
G01 X56.6608 Y19.3623 F150.00
G01 X56.5951 Y19.3313 F150.00
G01 X56.5267 Y19.3068 F150.00
G01 X56.4562 Y19.2891 F150.00
G01 X56.3844 Y19.2785 F150.00
G01 X56.3118 Y19.2749 F150.00
G01 X56.2392 Y19.2785 F150.00
G01 X56.1674 Y19.2891 F150.00
G01 X56.0969 Y19.3068 F150.00
G01 X56.0285 Y19.3313 F150.00
G01 X55.9628 Y19.3623 F150.00
G01 X55.9005 Y19.3997 F150.00
G01 X55.8422 Y19.4429 F150.00
G01 X55.7883 Y19.4917 F150.00
G01 X55.7395 Y19.5456 F150.00
G01 X55.6963 Y19.6039 F150.00
G01 X55.6589 Y19.6662 F150.00
G01 X55.6279 Y19.7319 F150.00
G01 X55.6034 Y19.8003 F150.00
G01 X55.5857 Y19.8708 F150.00
G01 X55.5751 Y19.9426 F150.00
G01 X55.5715 Y20.0152 F150.00
G01 X55.9069 Y20.0152 F150.00
G01 X55.9089 Y20.0549 F150.00
G01 X55.9147 Y20.0942 F150.00
G01 X55.9243 Y20.1327 F150.00
G01 X55.9377 Y20.1701 F150.00
G01 X55.9547 Y20.2061 F150.00
G01 X55.9751 Y20.2401 F150.00
G01 X55.9988 Y20.2721 F150.00
G01 X56.0255 Y20.3015 F150.00
G01 X56.0549 Y20.3282 F150.00
G01 X56.0869 Y20.3519 F150.00
G01 X56.1209 Y20.3723 F150.00
G01 X56.1569 Y20.3893 F150.00
G01 X56.1943 Y20.4027 F150.00
G01 X56.2328 Y20.4123 F150.00
G01 X56.2721 Y20.4181 F150.00
G01 X56.3118 Y20.4201 F150.00
G01 X56.3515 Y20.4181 F150.00
G01 X56.3908 Y20.4123 F150.00
G01 X56.4293 Y20.4027 F150.00
G01 X56.4667 Y20.3893 F150.00
G01 X56.5027 Y20.3723 F150.00
G01 X56.5367 Y20.3519 F150.00
G01 X56.5687 Y20.3282 F150.00
G01 X56.5981 Y20.3015 F150.00
G01 X56.6248 Y20.2721 F150.00
G01 X56.6485 Y20.2401 F150.00
G01 X56.6689 Y20.2061 F150.00
G01 X56.6859 Y20.1701 F150.00
G01 X56.6993 Y20.1327 F150.00
G01 X56.7089 Y20.0942 F150.00
G01 X56.7147 Y20.0549 F150.00
G01 X56.7167 Y20.0152 F150.00
G01 X56.7147 Y19.9755 F150.00
G01 X56.7089 Y19.9362 F150.00
G01 X56.6993 Y19.8977 F150.00
G01 X56.6859 Y19.8603 F150.00
G01 X56.6689 Y19.8243 F150.00
G01 X56.6485 Y19.7903 F150.00
G01 X56.6248 Y19.7583 F150.00
G01 X56.5981 Y19.7289 F150.00
G01 X56.5687 Y19.7022 F150.00
G01 X56.5367 Y19.6785 F150.00
G01 X56.5027 Y19.6581 F150.00
G01 X56.4667 Y19.6411 F150.00
G01 X56.4293 Y19.6277 F150.00
G01 X56.3908 Y19.6181 F150.00
G01 X56.3515 Y19.6123 F150.00
G01 X56.3118 Y19.6103 F150.00
G01 X56.2721 Y19.6123 F150.00
G01 X56.2328 Y19.6181 F150.00
G01 X56.1943 Y19.6277 F150.00
G01 X56.1569 Y19.6411 F150.00
G01 X56.1209 Y19.6581 F150.00
G01 X56.0869 Y19.6785 F150.00
G01 X56.0549 Y19.7022 F150.00
G01 X56.0255 Y19.7289 F150.00
G01 X55.9988 Y19.7583 F150.00
G01 X55.9751 Y19.7903 F150.00
G01 X55.9547 Y19.8243 F150.00
G01 X55.9377 Y19.8603 F150.00
G01 X55.9243 Y19.8977 F150.00
G01 X55.9147 Y19.9362 F150.00
G01 X55.9089 Y19.9755 F150.00
G01 X55.9069 Y20.0152 F150.00
G01 X56.2423 Y20.0152 F150.00
G01 X56.2426 Y20.0220 F150.00
G01 X56.2436 Y20.0288 F150.00
G01 X56.2453 Y20.0354 F150.00
G01 X56.2476 Y20.0418 F150.00
G01 X56.2505 Y20.0480 F150.00
G01 X56.2540 Y20.0538 F150.00
G01 X56.2581 Y20.0593 F150.00
G01 X56.2627 Y20.0643 F150.00
G01 X56.2677 Y20.0689 F150.00
G01 X56.2732 Y20.0730 F150.00
G01 X56.2790 Y20.0765 F150.00
G01 X56.2852 Y20.0794 F150.00
G01 X56.2916 Y20.0817 F150.00
G01 X56.2982 Y20.0834 F150.00
G01 X56.3050 Y20.0844 F150.00
G01 X56.3118 Y20.0847 F150.00
G01 X56.3186 Y20.0844 F150.00
G01 X56.3254 Y20.0834 F150.00
G01 X56.3320 Y20.0817 F150.00
G01 X56.3384 Y20.0794 F150.00
G01 X56.3446 Y20.0765 F150.00
G01 X56.3504 Y20.0730 F150.00
G01 X56.3559 Y20.0689 F150.00
G01 X56.3609 Y20.0643 F150.00
G01 X56.3655 Y20.0593 F150.00
G01 X56.3696 Y20.0538 F150.00
G01 X56.3731 Y20.0480 F150.00
G01 X56.3760 Y20.0418 F150.00
G01 X56.3783 Y20.0354 F150.00
G01 X56.3800 Y20.0288 F150.00
G01 X56.3810 Y20.0220 F150.00
G01 X56.3813 Y20.0152 F150.00
G01 X56.3810 Y20.0084 F150.00
G01 X56.3800 Y20.0016 F150.00
G01 X56.3783 Y19.9950 F150.00
G01 X56.3760 Y19.9886 F150.00
G01 X56.3731 Y19.9824 F150.00
G01 X56.3696 Y19.9766 F150.00
G01 X56.3655 Y19.9711 F150.00
G01 X56.3609 Y19.9661 F150.00
G01 X56.3559 Y19.9615 F150.00
G01 X56.3504 Y19.9574 F150.00
G01 X56.3446 Y19.9539 F150.00
G01 X56.3384 Y19.9510 F150.00
G01 X56.3320 Y19.9487 F150.00
G01 X56.3254 Y19.9470 F150.00
G01 X56.3186 Y19.9460 F150.00
G01 X56.3118 Y19.9457 F150.00
G01 X56.3050 Y19.9460 F150.00
G01 X56.2982 Y19.9470 F150.00
G01 X56.2916 Y19.9487 F150.00
G01 X56.2852 Y19.9510 F150.00
G01 X56.2790 Y19.9539 F150.00
G01 X56.2732 Y19.9574 F150.00
G01 X56.2677 Y19.9615 F150.00
G01 X56.2627 Y19.9661 F150.00
G01 X56.2581 Y19.9711 F150.00
G01 X56.2540 Y19.9766 F150.00
G01 X56.2505 Y19.9824 F150.00
G01 X56.2476 Y19.9886 F150.00
G01 X56.2453 Y19.9950 F150.00
G01 X56.2436 Y20.0016 F150.00
G01 X56.2426 Y20.0084 F150.00
G01 X56.2423 Y20.0152 F150.00
G00 Z2.0000
G00 X58.9255 Y20.0152
G01 F50.00
G01 Z0.0000
G01 F150.00
G01 X58.9160 Y20.0418 F150.00
G01 X58.9131 Y20.0480 F150.00
G01 X58.9096 Y20.0538 F150.00
G01 X58.9055 Y20.0593 F150.00
G01 X58.9009 Y20.0643 F150.00
G01 X58.8959 Y20.0689 F150.00
G01 X58.8904 Y20.0730 F150.00
G01 X58.8846 Y20.0765 F150.00
G01 X58.8784 Y20.0794 F150.00
G01 X58.8720 Y20.0817 F150.00
G01 X58.8654 Y20.0834 F150.00
G01 X58.8586 Y20.0844 F150.00
G01 X58.8518 Y20.0847 F150.00
G01 X58.8450 Y20.0844 F150.00
G01 X58.8382 Y20.0834 F150.00
G01 X58.8316 Y20.0817 F150.00
G01 X58.8252 Y20.0794 F150.00
G01 X58.8190 Y20.0765 F150.00
G01 X58.8132 Y20.0730 F150.00
G01 X58.8077 Y20.0689 F150.00
G01 X58.8027 Y20.0643 F150.00
G01 X58.7981 Y20.0593 F150.00
G01 X58.7940 Y20.0538 F150.00
G01 X58.7905 Y20.0480 F150.00
G01 X58.7876 Y20.0418 F150.00
G01 X58.7853 Y20.0354 F150.00
G01 X58.7836 Y20.0288 F150.00
G01 X58.7826 Y20.0220 F150.00
G01 X58.7823 Y20.0152 F150.00
G01 X58.7826 Y20.0084 F150.00
G01 X58.7836 Y20.0016 F150.00
G01 X58.7853 Y19.9950 F150.00
G01 X58.7876 Y19.9886 F150.00
G01 X58.7905 Y19.9824 F150.00
G01 X58.7940 Y19.9766 F150.00
G01 X58.7981 Y19.9711 F150.00
G01 X58.8027 Y19.9661 F150.00
G01 X58.8077 Y19.9615 F150.00
G01 X58.8132 Y19.9574 F150.00
G01 X58.8190 Y19.9539 F150.00
G01 X58.8252 Y19.9510 F150.00
G01 X58.8316 Y19.9487 F150.00
G01 X58.8382 Y19.9470 F150.00
G01 X58.8450 Y19.9460 F150.00
G01 X58.8518 Y19.9457 F150.00
G01 X58.8586 Y19.9460 F150.00
G01 X58.8654 Y19.9470 F150.00
G01 X58.8720 Y19.9487 F150.00
G01 X58.8784 Y19.9510 F150.00
G01 X58.8846 Y19.9539 F150.00
G01 X58.8904 Y19.9574 F150.00
G01 X58.8959 Y19.9615 F150.00
G01 X58.9009 Y19.9661 F150.00
G01 X58.9055 Y19.9711 F150.00
G01 X58.9096 Y19.9766 F150.00
G01 X58.9131 Y19.9824 F150.00
G01 X58.9160 Y19.9886 F150.00
G01 X58.9255 Y20.0152 F150.00
G01 X59.2943 Y20.0152 F150.00
G01 X59.2846 Y20.0317 F150.00
G01 X59.2742 Y20.0508 F150.00
G01 X59.2596 Y20.0810 F150.00
G01 X59.2511 Y20.1010 F150.00
G01 X59.2461 Y20.1138 F150.00
G01 X59.2259 Y20.1701 F150.00
G01 X59.2089 Y20.2061 F150.00
G01 X59.1885 Y20.2401 F150.00
G01 X59.1648 Y20.2721 F150.00
G01 X59.1381 Y20.3015 F150.00
G01 X59.1087 Y20.3282 F150.00
G01 X59.0767 Y20.3519 F150.00
G01 X59.0427 Y20.3723 F150.00
G01 X59.0067 Y20.3893 F150.00
G01 X58.9693 Y20.4027 F150.00
G01 X58.9308 Y20.4123 F150.00
G01 X58.8915 Y20.4181 F150.00
G01 X58.8518 Y20.4201 F150.00
G01 X58.8121 Y20.4181 F150.00
G01 X58.7728 Y20.4123 F150.00
G01 X58.7343 Y20.4027 F150.00
G01 X58.6969 Y20.3893 F150.00
G01 X58.6609 Y20.3723 F150.00
G01 X58.6269 Y20.3519 F150.00
G01 X58.5949 Y20.3282 F150.00
G01 X58.5655 Y20.3015 F150.00
G01 X58.5388 Y20.2721 F150.00
G01 X58.5151 Y20.2401 F150.00
G01 X58.4947 Y20.2061 F150.00
G01 X58.4777 Y20.1701 F150.00
G01 X58.4643 Y20.1327 F150.00
G01 X58.4547 Y20.0942 F150.00
G01 X58.4489 Y20.0549 F150.00
G01 X58.4469 Y20.0152 F150.00
G01 X58.4489 Y19.9755 F150.00
G01 X58.4547 Y19.9362 F150.00
G01 X58.4643 Y19.8977 F150.00
G01 X58.4777 Y19.8603 F150.00
G01 X58.4947 Y19.8243 F150.00
G01 X58.5151 Y19.7903 F150.00
G01 X58.5388 Y19.7583 F150.00
G01 X58.5655 Y19.7289 F150.00
G01 X58.5949 Y19.7022 F150.00
G01 X58.6269 Y19.6785 F150.00
G01 X58.6609 Y19.6581 F150.00
G01 X58.6969 Y19.6411 F150.00
G01 X58.7343 Y19.6277 F150.00
G01 X58.7728 Y19.6181 F150.00
G01 X58.8121 Y19.6123 F150.00
G01 X58.8518 Y19.6103 F150.00
G01 X58.8915 Y19.6123 F150.00
G01 X58.9308 Y19.6181 F150.00
G01 X58.9693 Y19.6277 F150.00
G01 X59.0067 Y19.6411 F150.00
G01 X59.0427 Y19.6581 F150.00
G01 X59.0767 Y19.6785 F150.00
G01 X59.1087 Y19.7022 F150.00
G01 X59.1381 Y19.7289 F150.00
G01 X59.1648 Y19.7583 F150.00
G01 X59.1885 Y19.7903 F150.00
G01 X59.2089 Y19.8243 F150.00
G01 X59.2259 Y19.8603 F150.00
G01 X59.2461 Y19.9166 F150.00
G01 X59.2542 Y19.9367 F150.00
G01 X59.2596 Y19.9494 F150.00
G01 X59.2742 Y19.9796 F150.00
G01 X59.2846 Y19.9987 F150.00
G01 X59.2943 Y20.0152 F150.00
G01 X61.4013 Y20.1054 F150.00
G01 X61.3819 Y20.0919 F150.00
G01 X61.3551 Y20.0744 F150.00
G01 X61.3477 Y20.0689 F150.00
G01 X61.3427 Y20.0643 F150.00
G01 X61.3381 Y20.0593 F150.00
G01 X61.3340 Y20.0538 F150.00
G01 X61.3305 Y20.0480 F150.00
G01 X61.3276 Y20.0418 F150.00
G01 X61.3181 Y20.0152 F150.00
G01 X61.3276 Y19.9886 F150.00
G01 X61.3305 Y19.9824 F150.00
G01 X61.3340 Y19.9766 F150.00
G01 X61.3381 Y19.9711 F150.00
G01 X61.3427 Y19.9661 F150.00
G01 X61.3477 Y19.9615 F150.00
G01 X61.3532 Y19.9574 F150.00
G01 X61.3590 Y19.9539 F150.00
G01 X61.3652 Y19.9510 F150.00
G01 X61.3716 Y19.9487 F150.00
G01 X61.3782 Y19.9470 F150.00
G01 X61.3850 Y19.9460 F150.00
G01 X61.3918 Y19.9457 F150.00
G01 X61.3986 Y19.9460 F150.00
G01 X61.4054 Y19.9470 F150.00
G01 X61.4120 Y19.9487 F150.00
G01 X61.4184 Y19.9510 F150.00
G01 X61.4246 Y19.9539 F150.00
G01 X61.4304 Y19.9574 F150.00
G01 X61.4359 Y19.9615 F150.00
G01 X61.4409 Y19.9661 F150.00
G01 X61.4455 Y19.9711 F150.00
G01 X61.4496 Y19.9766 F150.00
G01 X61.4531 Y19.9824 F150.00
G01 X61.4560 Y19.9886 F150.00
G01 X61.4583 Y19.9950 F150.00
G01 X61.4600 Y20.0016 F150.00
G01 X61.4610 Y20.0084 F150.00
G01 X61.4613 Y20.0152 F150.00
G01 X61.4610 Y20.0220 F150.00
G01 X61.4600 Y20.0288 F150.00
G01 X61.4583 Y20.0354 F150.00
G01 X61.4560 Y20.0418 F150.00
G01 X61.4531 Y20.0480 F150.00
G01 X61.4496 Y20.0538 F150.00
G01 X61.4455 Y20.0593 F150.00
G01 X61.4368 Y20.0689 F150.00
G01 X61.4200 Y20.0857 F150.00
G01 X61.4013 Y20.1054 F150.00
G00 Z2.0000
G00 X63.8961 Y19.9555
G01 F50.00
G01 Z0.0000
G01 F150.00
G01 X63.9174 Y19.9417 F150.00
G01 X63.9418 Y19.9250 F150.00
G01 X63.9594 Y19.9438 F150.00
G01 X63.9753 Y19.9598 F150.00
G01 X63.9855 Y19.9711 F150.00
G01 X63.9896 Y19.9766 F150.00
G01 X63.9931 Y19.9824 F150.00
G01 X63.9960 Y19.9886 F150.00
G01 X63.9983 Y19.9950 F150.00
G01 X64.0000 Y20.0016 F150.00
G01 X64.0010 Y20.0084 F150.00
G01 X64.0013 Y20.0152 F150.00
G01 X64.0010 Y20.0220 F150.00
G01 X64.0000 Y20.0288 F150.00
G01 X63.9983 Y20.0354 F150.00
G01 X63.9960 Y20.0418 F150.00
G01 X63.9931 Y20.0480 F150.00
G01 X63.9896 Y20.0538 F150.00
G01 X63.9855 Y20.0593 F150.00
G01 X63.9809 Y20.0643 F150.00
G01 X63.9759 Y20.0689 F150.00
G01 X63.9704 Y20.0730 F150.00
G01 X63.9646 Y20.0765 F150.00
G01 X63.9584 Y20.0794 F150.00
G01 X63.9520 Y20.0817 F150.00
G01 X63.9454 Y20.0834 F150.00
G01 X63.9386 Y20.0844 F150.00
G01 X63.9318 Y20.0847 F150.00
G01 X63.9250 Y20.0844 F150.00
G01 X63.9182 Y20.0834 F150.00
G01 X63.9116 Y20.0817 F150.00
G01 X63.9052 Y20.0794 F150.00
G01 X63.8990 Y20.0765 F150.00
G01 X63.8932 Y20.0730 F150.00
G01 X63.8877 Y20.0689 F150.00
G01 X63.8827 Y20.0643 F150.00
G01 X63.8781 Y20.0593 F150.00
G01 X63.8740 Y20.0538 F150.00
G01 X63.8705 Y20.0480 F150.00
G01 X63.8676 Y20.0418 F150.00
G01 X63.8653 Y20.0354 F150.00
G01 X63.8636 Y20.0288 F150.00
G01 X63.8626 Y20.0220 F150.00
G01 X63.8623 Y20.0152 F150.00
G01 X63.8626 Y20.0084 F150.00
G01 X63.8636 Y20.0016 F150.00
G01 X63.8653 Y19.9950 F150.00
G01 X63.8676 Y19.9886 F150.00
G01 X63.8705 Y19.9824 F150.00
G01 X63.8740 Y19.9766 F150.00
G01 X63.8781 Y19.9711 F150.00
G01 X63.8827 Y19.9661 F150.00
G01 X63.8870 Y19.9621 F150.00
G01 X63.8961 Y19.9555 F150.00
G01 X64.2027 Y17.4236 F150.00
G01 X65.5045 Y16.1969 F150.00
G01 X65.5169 Y16.1862 F150.00
G01 X65.5209 Y16.1836 F150.00
G01 X65.5253 Y16.1819 F150.00
G01 X65.5300 Y16.1810 F150.00
G01 X65.5464 Y16.1803 F150.00
G01 X75.4031 Y16.1803 F150.00
G01 X75.4228 Y16.1798 F150.00
G01 X75.4445 Y16.1785 F150.00
G01 X75.4641 Y16.1767 F150.00
G01 X75.4915 Y16.1730 F150.00
G01 X75.5129 Y16.1691 F150.00
G01 X75.5321 Y16.1650 F150.00
G01 X75.5532 Y16.1596 F150.00
G01 X75.5797 Y16.1517 F150.00
G01 X75.5983 Y16.1453 F150.00
G01 X75.6186 Y16.1376 F150.00
G01 X75.6368 Y16.1298 F150.00
G01 X75.6564 Y16.1207 F150.00
G01 X75.6740 Y16.1117 F150.00
G01 X75.6981 Y16.0981 F150.00
G01 X75.7165 Y16.0867 F150.00
G01 X75.7329 Y16.0757 F150.00
G01 X75.7505 Y16.0630 F150.00
G01 X75.7661 Y16.0509 F150.00
G01 X75.7827 Y16.0369 F150.00
G01 X75.8003 Y16.0211 F150.00
G01 X76.7513 Y15.1249 F150.00
G01 X76.7696 Y15.1068 F150.00
G01 X76.7929 Y15.0815 F150.00
G01 X76.8053 Y15.0666 F150.00
G01 X76.8184 Y15.0497 F150.00
G01 X76.8298 Y15.0340 F150.00
G01 X76.8406 Y15.0180 F150.00
G01 X76.8520 Y14.9998 F150.00
G01 X76.8616 Y14.9830 F150.00
G01 X76.8707 Y14.9659 F150.00
G01 X76.8802 Y14.9467 F150.00
G01 X76.8881 Y14.9290 F150.00
G01 X76.8954 Y14.9111 F150.00
G01 X76.9028 Y14.8909 F150.00
G01 X76.9088 Y14.8726 F150.00
G01 X76.9180 Y14.8395 F150.00
G01 X76.9214 Y14.8248 F150.00
G01 X76.9257 Y14.8038 F150.00
G01 X76.9294 Y14.7804 F150.00
G01 X76.9313 Y14.7655 F150.00
G01 X76.9328 Y14.7505 F150.00
G01 X76.9343 Y14.7291 F150.00
G01 X76.9351 Y14.6947 F150.00
G01 X76.9139 Y11.9019 F150.00
G01 X76.9132 Y11.8762 F150.00
G01 X76.9108 Y11.8462 F150.00
G01 X76.9070 Y11.8164 F150.00
G01 X76.9007 Y11.7826 F150.00
G01 X76.8924 Y11.7492 F150.00
G01 X76.8836 Y11.7205 F150.00
G01 X76.8787 Y11.7063 F150.00
G01 X76.8710 Y11.6863 F150.00
G01 X76.8589 Y11.6587 F150.00
G01 X76.8524 Y11.6452 F150.00
G01 X76.8414 Y11.6243 F150.00
G01 X76.8263 Y11.5983 F150.00
G01 X76.8098 Y11.5732 F150.00
G01 X76.7920 Y11.5489 F150.00
G01 X76.7731 Y11.5256 F150.00
G01 X76.7529 Y11.5033 F150.00
G01 X76.7378 Y11.4880 F150.00
G01 X76.7206 Y11.4718 F150.00
G01 X76.6978 Y11.4523 F150.00
G01 X76.6799 Y11.4383 F150.00
G01 X76.6503 Y11.4115 F150.00
G01 X76.6236 Y11.3821 F150.00
G01 X76.5999 Y11.3501 F150.00
G01 X76.5795 Y11.3161 F150.00
G01 X76.5625 Y11.2801 F150.00
G01 X76.5491 Y11.2427 F150.00
G01 X76.5395 Y11.2042 F150.00
G01 X76.5337 Y11.1649 F150.00
G01 X76.5317 Y11.1252 F150.00
G01 X76.5337 Y11.0855 F150.00
G01 X76.5395 Y11.0462 F150.00
G01 X76.5491 Y11.0077 F150.00
G01 X76.5625 Y10.9703 F150.00
G01 X76.5795 Y10.9343 F150.00
G01 X76.5999 Y10.9003 F150.00
G01 X76.6236 Y10.8683 F150.00
G01 X76.6503 Y10.8389 F150.00
G01 X76.6797 Y10.8122 F150.00
G01 X76.7117 Y10.7885 F150.00
G01 X76.7457 Y10.7681 F150.00
G01 X76.7817 Y10.7511 F150.00
G01 X76.8191 Y10.7377 F150.00
G01 X76.8576 Y10.7281 F150.00
G01 X76.8969 Y10.7223 F150.00
G01 X76.9366 Y10.7203 F150.00
G01 X76.9763 Y10.7223 F150.00
G01 X77.0156 Y10.7281 F150.00
G01 X77.0541 Y10.7377 F150.00
G01 X77.0915 Y10.7511 F150.00
G01 X77.1275 Y10.7681 F150.00
G01 X77.1615 Y10.7885 F150.00
G01 X77.1935 Y10.8122 F150.00
G01 X77.2229 Y10.8389 F150.00
G01 X77.2496 Y10.8683 F150.00
G01 X77.2733 Y10.9003 F150.00
G01 X77.2937 Y10.9343 F150.00
G01 X77.3107 Y10.9703 F150.00
G01 X77.3241 Y11.0077 F150.00
G01 X77.3337 Y11.0462 F150.00
G01 X77.3395 Y11.0855 F150.00
G01 X77.3415 Y11.1252 F150.00
G01 X77.3395 Y11.1649 F150.00
G01 X77.3337 Y11.2042 F150.00
G01 X77.3241 Y11.2427 F150.00
G01 X77.3107 Y11.2801 F150.00
G01 X77.2937 Y11.3161 F150.00
G01 X77.2733 Y11.3501 F150.00
G01 X77.2496 Y11.3821 F150.00
G01 X77.2229 Y11.4115 F150.00
G01 X77.1928 Y11.4388 F150.00
G01 X77.1755 Y11.4525 F150.00
G01 X77.1548 Y11.4706 F150.00
G01 X77.1349 Y11.4896 F150.00
G01 X77.1213 Y11.5037 F150.00
G01 X77.1068 Y11.5198 F150.00
G01 X77.0979 Y11.5302 F150.00
G01 X77.0809 Y11.5518 F150.00
G01 X77.0649 Y11.5742 F150.00
G01 X77.0500 Y11.5973 F150.00
G01 X77.0334 Y11.6263 F150.00
G01 X77.0270 Y11.6385 F150.00
G01 X77.0176 Y11.6579 F150.00
G01 X77.0045 Y11.6886 F150.00
G01 X76.9969 Y11.7089 F150.00
G01 X76.9925 Y11.7219 F150.00
G01 X76.9831 Y11.7539 F150.00
G01 X76.9780 Y11.7749 F150.00
G01 X76.9751 Y11.7884 F150.00
G01 X76.9704 Y11.8155 F150.00
G01 X76.9663 Y11.8486 F150.00
G01 X76.9644 Y11.8760 F150.00
G01 X76.9638 Y11.9074 F150.00
G01 X76.9868 Y14.9464 F150.00
G01 X76.9865 Y14.9580 F150.00
G01 X76.9858 Y14.9656 F150.00
G01 X76.9844 Y14.9701 F150.00
G01 X76.9821 Y14.9743 F150.00
G01 X76.9770 Y14.9801 F150.00
G01 X76.9689 Y14.9884 F150.00
G01 X75.6687 Y16.2135 F150.00
G01 X75.6544 Y16.2256 F150.00
G01 X75.6502 Y16.2278 F150.00
G01 X75.6456 Y16.2291 F150.00
G01 X75.6268 Y16.2301 F150.00
G01 X65.7741 Y16.2301 F150.00
G01 X65.7504 Y16.2306 F150.00
G01 X65.7287 Y16.2319 F150.00
G01 X65.7012 Y16.2347 F150.00
G01 X65.6817 Y16.2374 F150.00
G01 X65.6603 Y16.2413 F150.00
G01 X65.6334 Y16.2473 F150.00
G01 X65.6143 Y16.2524 F150.00
G01 X65.5935 Y16.2587 F150.00
G01 X65.5675 Y16.2678 F150.00
G01 X65.5364 Y16.2806 F150.00
G01 X65.5115 Y16.2924 F150.00
G01 X65.4871 Y16.3054 F150.00
G01 X65.4633 Y16.3195 F150.00
G01 X65.4451 Y16.3314 F150.00
G01 X65.4338 Y16.3393 F150.00
G01 X65.4071 Y16.3595 F150.00
G01 X65.3860 Y16.3774 F150.00
G01 X65.3729 Y16.3893 F150.00
G01 X64.3887 Y17.3168 F150.00
G01 X64.3782 Y17.3271 F150.00
G01 X64.3636 Y17.3423 F150.00
G01 X64.3509 Y17.3564 F150.00
G01 X64.3388 Y17.3710 F150.00
G01 X64.3296 Y17.3825 F150.00
G01 X64.3171 Y17.3994 F150.00
G01 X64.3005 Y17.4238 F150.00
G01 X64.2831 Y17.4527 F150.00
G01 X64.2741 Y17.4694 F150.00
G01 X64.2647 Y17.4882 F150.00
G01 X64.2569 Y17.5055 F150.00
G01 X64.2496 Y17.5230 F150.00
G01 X64.2421 Y17.5427 F150.00
G01 X64.2373 Y17.5566 F150.00
G01 X64.2288 Y17.5849 F150.00
G01 X64.2208 Y17.6176 F150.00
G01 X64.2161 Y17.6424 F150.00
G01 X64.2114 Y17.6758 F150.00
G01 X64.0397 Y19.2409 F150.00
G01 X64.0380 Y19.2586 F150.00
G01 X64.0368 Y19.2782 F150.00
G01 X64.0363 Y19.2920 F150.00
G01 X64.0363 Y19.3137 F150.00
G01 X64.0373 Y19.3413 F150.00
G01 X64.0404 Y19.3747 F150.00
G01 X64.0422 Y19.3883 F150.00
G01 X64.0457 Y19.4098 F150.00
G01 X64.0527 Y19.4425 F150.00
G01 X64.0598 Y19.4692 F150.00
G01 X64.0638 Y19.4824 F150.00
G01 X64.0708 Y19.5030 F150.00
G01 X64.0831 Y19.5341 F150.00
G01 X64.0945 Y19.5593 F150.00
G01 X64.1071 Y19.5838 F150.00
G01 X64.1208 Y19.6078 F150.00
G01 X64.1357 Y19.6310 F150.00
G01 X64.1516 Y19.6536 F150.00
G01 X64.1686 Y19.6753 F150.00
G01 X64.1826 Y19.6919 F150.00
G01 X64.2014 Y19.7121 F150.00
G01 X64.2164 Y19.7271 F150.00
G01 X64.2448 Y19.7583 F150.00
G01 X64.2685 Y19.7903 F150.00
